; G-Code generated by Simplify3D(R) Version 4.0.1
; Nov 14, 2018 at 6:28:22 AM
; Settings Summary
;   processName,PLA Medium
;   applyToModels,led_case-panel-wrap
;   profileName,Wanhao Duplicator 6.2
;   profileVersion,2018-10-06 23:33:11
;   baseProfile,Wanhao Duplicator 6 (modified)
;   printMaterial,PLA
;   printQuality,.Medium
;   printExtruders,
;   extruderName,Primary Extruder
;   extruderToolheadNumber,0
;   extruderDiameter,0.4
;   extruderAutoWidth,1
;   extruderWidth,0.48
;   extrusionMultiplier,0.9
;   extruderUseRetract,1
;   extruderRetractionDistance,0.65
;   extruderExtraRestartDistance,0
;   extruderRetractionZLift,0
;   extruderRetractionSpeed,2400
;   extruderUseCoasting,1
;   extruderCoastingDistance,0.2
;   extruderUseWipe,1
;   extruderWipeDistance,2
;   primaryExtruder,0
;   layerHeight,0.2
;   topSolidLayers,4
;   bottomSolidLayers,4
;   perimeterOutlines,2
;   printPerimetersInsideOut,1
;   startPointOption,2
;   startPointOriginX,0
;   startPointOriginY,0
;   sequentialIslands,1
;   spiralVaseMode,0
;   firstLayerHeightPercentage,200
;   firstLayerWidthPercentage,100
;   firstLayerUnderspeed,0.3
;   useRaft,0
;   raftExtruder,0
;   raftTopLayers,2
;   raftBaseLayers,1
;   raftOffset,3
;   raftSeparationDistance,0.14
;   raftTopInfill,100
;   aboveRaftSpeedMultiplier,0.3
;   useSkirt,1
;   skirtExtruder,0
;   skirtLayers,1
;   skirtOutlines,2
;   skirtOffset,4
;   usePrimePillar,0
;   primePillarExtruder,999
;   primePillarWidth,12
;   primePillarLocation,7
;   primePillarSpeedMultiplier,1
;   useOozeShield,0
;   oozeShieldExtruder,999
;   oozeShieldOffset,2
;   oozeShieldOutlines,1
;   oozeShieldSidewallShape,1
;   oozeShieldSidewallAngle,30
;   oozeShieldSpeedMultiplier,1
;   infillExtruder,0
;   internalInfillPattern,Rectilinear
;   externalInfillPattern,Rectilinear
;   infillPercentage,20
;   outlineOverlapPercentage,35
;   infillExtrusionWidthPercentage,125
;   minInfillLength,3
;   infillLayerInterval,2
;   internalInfillAngles,45,-45
;   overlapInternalInfillAngles,0
;   externalInfillAngles,45,-45
;   generateSupport,1
;   supportExtruder,0
;   supportInfillPercentage,40
;   supportExtraInflation,0
;   supportBaseLayers,0
;   denseSupportExtruder,0
;   denseSupportLayers,0
;   denseSupportInfillPercentage,70
;   supportLayerInterval,2
;   supportHorizontalPartOffset,0.3
;   supportUpperSeparationLayers,1
;   supportLowerSeparationLayers,1
;   supportType,0
;   supportGridSpacing,4
;   maxOverhangAngle,45
;   supportAngles,0
;   temperatureName,Primary Extruder,Heated Build Platform
;   temperatureNumber,0,1
;   temperatureSetpointCount,1,1
;   temperatureSetpointLayers,1,1
;   temperatureSetpointTemperatures,195,60
;   temperatureStabilizeAtStartup,1,1
;   temperatureHeatedBed,0,1
;   temperatureRelayBetweenLayers,0,0
;   temperatureRelayBetweenLoops,0,0
;   fanLayers,1,2,3
;   fanSpeeds,0,60,100
;   blipFanToFullPower,1
;   adjustSpeedForCooling,1
;   minSpeedLayerTime,15
;   minCoolingSpeedSlowdown,20
;   increaseFanForCooling,1
;   minFanLayerTime,10
;   maxCoolingFanSpeed,30
;   increaseFanForBridging,1
;   bridgingFanSpeed,45
;   use5D,1
;   relativeEdistances,0
;   allowEaxisZeroing,1
;   independentExtruderAxes,0
;   includeM10123,0
;   stickySupport,1
;   applyToolheadOffsets,0
;   gcodeXoffset,0
;   gcodeYoffset,0
;   gcodeZoffset,0
;   overrideMachineDefinition,1
;   machineTypeOverride,0
;   strokeXoverride,200
;   strokeYoverride,200
;   strokeZoverride,175
;   originOffsetXoverride,0
;   originOffsetYoverride,0
;   originOffsetZoverride,0
;   homeXdirOverride,-1
;   homeYdirOverride,-1
;   homeZdirOverride,-1
;   flipXoverride,1
;   flipYoverride,-1
;   flipZoverride,1
;   toolheadOffsets,0,0|0,0|0,0|0,0|0,0|0,0
;   overrideFirmwareConfiguration,1
;   firmwareTypeOverride,RepRap (Marlin/Repetier/Sprinter)
;   GPXconfigOverride,r2
;   baudRateOverride,250000
;   overridePrinterModels,1
;   printerModelsOverride
;   startingGcode,M117 Starting..,,G21 ;metric values,G90 ;absolute positioning,M82 ;set extruder to absolute mode,;M107 ;start with the fan off,;G28 X0 Y0 ;move X/Y to min endstops,;G28 Z0 ;move Z to min endstops,;G28 X0 Y0 ;move X/Y to min endstops,;G1 Z15.0 F{travel_speed} ;move the platform down 15mm,;G92 E0 ;zero the extruded length,;G1 F200 E6 ;extrude 6 mm of feed stock,;G92 E0 ;zero the extruded length again,G1 F{travel_speed},,; Duplicator 6 / Monoprice Maker Ultimate Start Script V3,M107 ; start with the fan off,G28 ; home,;G29 ; probe bed,G1 Z15 F3600 ; move the platform 15mm down from home,G0 X0 Y0 ; Rapid move X0 Y0,G92 E0 ; zero the extruded length,; perform wipe and prime,G1 X8.0 Z0.0 F3600,G1 X10.0 Z0.2 F3600,G1 X70 Z0.4 E9.0 F1000 ; prime,G1 X100.0 E22 F1000 ; prime,G1 X130 Z0.2 F9000 ; pull away wipe,G1 X140 F9000     ; finish wipe,G1 Z2 F1000 ; lift head before first move,G1 X100 Y100 F5000 ; Move nozzle to center of bed,G92 E0 ; zero extruder again,; Place printing message on LCD screen,M117 YEAH BABY
;   layerChangeGcode,
;   retractionGcode,
;   toolChangeGcode,
;   endingGcode,M117 Finishing up..,,; Duplicator 6 / Monoprice Maker Ultimate Stop Script V2,G92 E0 ; zero the extruded length,;G1 E-1.5 F500 ; retract the filament to release some of the pressure,G1 E-1 F300  ;retract the filament a bit before lifting the nozzle to release some of the pressure,M104 S0 ; turn off heater,M140 S0 ; turn off bed,M106 S0 ; turn off part fan,G91 ; relative positioning,G1 Z3 ; lower build plate a few mm,G90 ; absolute positioning,G1 Z170 F9000 ; lower build plate,G28 X0 Y0 ; move head out of the way,M84 ; disable stepper motors,
;   exportFileFormat,gcode
;   celebration,0
;   celebrationSong,Random Song
;   postProcessing,
;   defaultSpeed,3000
;   outlineUnderspeed,0.65
;   solidInfillUnderspeed,0.7
;   supportUnderspeed,0.7
;   rapidXYspeed,4800
;   rapidZspeed,300
;   minBridgingArea,5
;   bridgingExtraInflation,0
;   bridgingExtrusionMultiplier,1
;   bridgingSpeedMultiplier,0.5
;   useFixedBridgingAngle,0
;   fixedBridgingAngle,0
;   applyBridgingToPerimeters,0
;   filamentDiameters,1.75|1.75|1.75|1.75|1.75|1.75
;   filamentPricesPerKg,20|46|46|46|46|46
;   filamentDensities,1.25|1.25|1.25|1.25|1.25|1.25
;   useMinPrintHeight,0
;   minPrintHeight,0
;   useMaxPrintHeight,0
;   maxPrintHeight,0
;   useDiaphragm,1
;   diaphragmLayerInterval,20
;   robustSlicing,1
;   mergeAllIntoSolid,0
;   onlyRetractWhenCrossingOutline,1
;   retractBetweenLayers,1
;   useRetractionMinTravel,1
;   retractionMinTravel,0.02
;   retractWhileWiping,1
;   onlyWipeOutlines,1
;   avoidCrossingOutline,1
;   maxMovementDetourFactor,3
;   toolChangeRetractionDistance,0.7
;   toolChangeExtraRestartDistance,-0.5
;   toolChangeRetractionSpeed,600
;   externalThinWallType,0
;   internalThinWallType,2
;   thinWallAllowedOverlapPercentage,10
;   singleExtrusionMinLength,1
;   singleExtrusionMinPrintingWidthPercentage,50
;   singleExtrusionMaxPrintingWidthPercentage,200
;   singleExtrusionEndpointExtension,0.2
;   horizontalSizeCompensation,0
G90
M82
M106 S255
G4 P500
M106 S0
M140 S60
M190 S60
M104 S195 T0
M109 S195 T0
M117 Starting..
G21 ;metric values
G90 ;absolute positioning
M82 ;set extruder to absolute mode
;M107 ;start with the fan off
;G28 X0 Y0 ;move X/Y to min endstops
;G28 Z0 ;move Z to min endstops
;G28 X0 Y0 ;move X/Y to min endstops
;G1 Z15.0 F{travel_speed} ;move the platform down 15mm
;G92 E0 ;zero the extruded length
;G1 F200 E6 ;extrude 6 mm of feed stock
;G92 E0 ;zero the extruded length again
G1 F{travel_speed}
; Duplicator 6 / Monoprice Maker Ultimate Start Script V3
M107 ; start with the fan off
G28 ; home
;G29 ; probe bed
G1 Z15 F3600 ; move the platform 15mm down from home
G0 X0 Y0 ; Rapid move X0 Y0
G92 E0 ; zero the extruded length
; perform wipe and prime
G1 X8.0 Z0.0 F3600
G1 X10.0 Z0.2 F3600
G1 X70 Z0.4 E9.0 F1000 ; prime
G1 X100.0 E22 F1000 ; prime
G1 X130 Z0.2 F9000 ; pull away wipe
G1 X140 F9000     ; finish wipe
G1 Z2 F1000 ; lift head before first move
G1 X100 Y100 F5000 ; Move nozzle to center of bed
G92 E0 ; zero extruder again
; Place printing message on LCD screen
M117 YEAH BABY
G92 E0
G1 E-0.6500 F2400
G1 Z0.400 F300
; process PLA Medium
; layer 1, Z = 0.400
T0
; tool H0.400 W0.480
; skirt
G1 X87.680 Y33.200 F4800
G1 E0.0000 F720
G92 E0
G1 X87.790 Y32.935 E0.0206 F900
G1 X90.335 Y30.390 E0.2792
G1 X90.600 Y30.280 E0.2998
G1 X109.400 Y30.280 E1.6504
G1 X109.665 Y30.390 E1.6710
G1 X112.210 Y32.935 E1.9297
G1 X112.320 Y33.200 E1.9502
G1 X112.320 Y166.800 E11.5483
G1 X112.210 Y167.065 E11.5689
G1 X109.665 Y169.610 E11.8275
G1 X109.400 Y169.720 E11.8481
G1 X90.600 Y169.720 E13.1988
G1 X90.335 Y169.610 E13.2193
G1 X87.790 Y167.065 E13.4780
G1 X87.680 Y166.800 E13.4986
G1 X87.680 Y33.400 E23.0823
G1 X87.680 Y33.200 F900
G1 X88.160 Y33.295 F4800
G92 E0
G1 X88.197 Y33.207 E0.0069 F900
G1 X90.607 Y30.797 E0.2518
G1 X90.695 Y30.760 E0.2586
G1 X109.305 Y30.760 E1.5956
G1 X109.393 Y30.797 E1.6024
G1 X111.803 Y33.207 E1.8473
G1 X111.840 Y33.295 E1.8542
G1 X111.840 Y166.705 E11.4386
G1 X111.803 Y166.793 E11.4454
G1 X109.393 Y169.203 E11.6903
G1 X109.305 Y169.240 E11.6972
G1 X90.695 Y169.240 E13.0341
G1 X90.607 Y169.203 E13.0410
G1 X88.197 Y166.793 E13.2859
G1 X88.160 Y166.705 E13.2928
G1 X88.160 Y33.495 E22.8628
G1 X88.160 Y33.295 F900
G92 E0
G1 E-0.6500 F2400
; inner perimeter
G1 X92.635 Y35.235 F4800
G1 X92.635 Y35.483 F4800
G1 X93.120 Y35.720 F4800
G1 E0.0000 F2400
G92 E0
G1 X106.880 Y35.720 E0.9885 F742
G1 X106.880 Y164.280 E10.2245
G1 X93.120 Y164.280 E11.2131
G1 X93.120 Y35.920 E20.4347
G1 X93.120 Y35.720 F742
; outer perimeter
G1 X92.640 Y35.240 F4800
G92 E0
G1 X107.360 Y35.240 E1.0575 F585
G1 X107.360 Y164.760 E10.3625
G1 X92.640 Y164.760 E11.4200
G1 X92.640 Y35.440 E20.7106
G1 X92.640 Y35.240 F585
G1 X94.640 Y35.240 F3000
; solid layer
G1 X105.951 Y36.032 F4800
G92 E0
G1 X106.568 Y36.649 E0.0627 F630
G1 X106.568 Y37.328 E0.1115
G1 X105.272 Y36.032 E0.2432
G1 X104.593 Y36.032 E0.2919
G1 X106.568 Y38.007 E0.4926
G1 X106.568 Y38.686 E0.5414
G1 X103.914 Y36.032 E0.8110
G1 X103.235 Y36.032 E0.8597
G1 X106.568 Y39.365 E1.1983
G1 X106.568 Y40.043 E1.2471
G1 X102.557 Y36.032 E1.6546
G1 X101.878 Y36.032 E1.7034
G1 X106.568 Y40.722 E2.1799
G1 X106.568 Y41.401 E2.2287
G1 X101.199 Y36.032 E2.7742
G1 X100.520 Y36.032 E2.8230
G1 X106.568 Y42.080 E3.4374
G1 X106.568 Y42.759 E3.4862
G1 X99.841 Y36.032 E4.1696
G1 X99.163 Y36.032 E4.2184
G1 X106.568 Y43.437 E4.9708
G1 X106.568 Y44.116 E5.0196
G1 X98.484 Y36.032 E5.8409
G1 X97.805 Y36.032 E5.8897
G1 X106.568 Y44.795 E6.7800
G1 X106.568 Y45.474 E6.8288
G1 X97.126 Y36.032 E7.7881
G1 X96.447 Y36.032 E7.8369
G1 X106.568 Y46.153 E8.8651
G1 X106.568 Y46.832 E8.9139
G1 X95.768 Y36.032 E10.0111
G1 X95.090 Y36.032 E10.0599
G1 X106.568 Y47.510 E11.2261
G1 X106.568 Y48.189 E11.2749
G1 X94.411 Y36.032 E12.5100
G1 X93.732 Y36.032 E12.5588
G1 X106.568 Y48.868 E13.8630
G1 X106.568 Y49.547 E13.9117
G1 X93.432 Y36.411 E15.2463
G1 X93.432 Y37.090 E15.2951
G1 X106.568 Y50.226 E16.6297
G1 X106.568 Y50.905 E16.6785
G1 X93.432 Y37.769 E18.0131
G1 X93.432 Y38.447 E18.0619
G1 X106.568 Y51.583 E19.3965
G1 X106.568 Y52.262 E19.4453
G1 X93.432 Y39.126 E20.7799
G1 X93.432 Y39.805 E20.8286
G1 X106.568 Y52.941 E22.1633
G1 X106.568 Y53.620 E22.2120
G1 X93.432 Y40.484 E23.5466
G1 X93.432 Y41.163 E23.5954
G1 X106.568 Y54.299 E24.9300
G1 X106.568 Y54.977 E24.9788
G1 X93.432 Y41.841 E26.3134
G1 X93.432 Y42.520 E26.3622
G1 X106.568 Y55.656 E27.6968
G1 X106.568 Y56.335 E27.7456
G1 X93.432 Y43.199 E29.0802
G1 X93.432 Y43.878 E29.1290
G1 X106.568 Y57.014 E30.4636
G1 X106.568 Y57.693 E30.5123
G1 X93.432 Y44.557 E31.8470
G1 X93.432 Y45.236 E31.8957
G1 X106.568 Y58.372 E33.2303
G1 X106.568 Y59.050 E33.2791
G1 X93.432 Y45.914 E34.6137
G1 X93.432 Y46.593 E34.6625
G1 X106.568 Y59.729 E35.9971
G1 X106.568 Y60.408 E36.0459
G1 X93.432 Y47.272 E37.3805
G1 X93.432 Y47.951 E37.4293
G1 X106.568 Y61.087 E38.7639
G1 X106.568 Y61.766 E38.8126
G1 X93.432 Y48.630 E40.1473
G1 X93.432 Y49.309 E40.1960
G1 X106.568 Y62.445 E41.5306
G1 X106.568 Y63.123 E41.5794
G1 X93.432 Y49.987 E42.9140
G1 X93.432 Y50.666 E42.9628
G1 X106.568 Y63.802 E44.2974
G1 X106.568 Y64.481 E44.3462
G1 X93.432 Y51.345 E45.6808
G1 X93.432 Y52.024 E45.7296
G1 X106.568 Y65.160 E47.0642
G1 X106.568 Y65.839 E47.1130
G1 X93.432 Y52.703 E48.4476
G1 X93.432 Y53.381 E48.4963
G1 X106.568 Y66.517 E49.8310
G1 X106.568 Y67.196 E49.8797
G1 X93.432 Y54.060 E51.2143
G1 X93.432 Y54.739 E51.2631
G1 X106.568 Y67.875 E52.5977
G1 X106.568 Y68.554 E52.6465
G1 X93.432 Y55.418 E53.9811
G1 X93.432 Y56.097 E54.0299
G1 X106.568 Y69.233 E55.3645
G1 X106.568 Y69.912 E55.4133
G1 X93.432 Y56.776 E56.7479
G1 X93.432 Y57.454 E56.7966
G1 X106.568 Y70.590 E58.1313
G1 X106.568 Y71.269 E58.1800
G1 X93.432 Y58.133 E59.5146
G1 X93.432 Y58.812 E59.5634
G1 X106.568 Y71.948 E60.8980
G1 X106.568 Y72.627 E60.9468
G1 X93.432 Y59.491 E62.2814
G1 X93.432 Y60.170 E62.3302
G1 X106.568 Y73.306 E63.6648
G1 X106.568 Y73.985 E63.7136
G1 X93.432 Y60.848 E65.0482
G1 X93.432 Y61.527 E65.0970
G1 X106.568 Y74.663 E66.4316
G1 X106.568 Y75.342 E66.4803
G1 X93.432 Y62.206 E67.8150
G1 X93.432 Y62.885 E67.8637
G1 X106.568 Y76.021 E69.1983
G1 X106.568 Y76.700 E69.2471
G1 X93.432 Y63.564 E70.5817
G1 X93.432 Y64.243 E70.6305
G1 X106.568 Y77.379 E71.9651
G1 X106.568 Y78.057 E72.0139
G1 X93.432 Y64.921 E73.3485
G1 X93.432 Y65.600 E73.3973
G1 X106.568 Y78.736 E74.7319
G1 X106.568 Y79.415 E74.7806
G1 X93.432 Y66.279 E76.1153
G1 X93.432 Y66.958 E76.1640
G1 X106.568 Y80.094 E77.4986
G1 X106.568 Y80.773 E77.5474
G1 X93.432 Y67.637 E78.8820
G1 X93.432 Y68.316 E78.9308
G1 X106.568 Y81.452 E80.2654
G1 X106.568 Y82.130 E80.3142
G1 X93.432 Y68.994 E81.6488
G1 X93.432 Y69.673 E81.6976
G1 X106.568 Y82.809 E83.0322
G1 X106.568 Y83.488 E83.0810
G1 X93.432 Y70.352 E84.4156
G1 X93.432 Y71.031 E84.4643
G1 X106.568 Y84.167 E85.7990
G1 X106.568 Y84.846 E85.8477
G1 X93.432 Y71.710 E87.1823
G1 X93.432 Y72.388 E87.2311
G1 X106.568 Y85.524 E88.5657
G1 X106.568 Y86.203 E88.6145
G1 X93.432 Y73.067 E89.9491
G1 X93.432 Y73.746 E89.9979
G1 X106.568 Y86.882 E91.3325
G1 X106.568 Y87.561 E91.3813
G1 X93.432 Y74.425 E92.7159
G1 X93.432 Y75.104 E92.7646
G1 X106.568 Y88.240 E94.0993
G1 X106.568 Y88.919 E94.1480
G1 X93.432 Y75.783 E95.4826
G1 X93.432 Y76.461 E95.5314
G1 X106.568 Y89.597 E96.8660
G1 X106.568 Y90.276 E96.9148
G1 X93.432 Y77.140 E98.2494
G1 X93.432 Y77.819 E98.2982
G1 X106.568 Y90.955 E99.6328
G1 X106.568 Y91.634 E99.6816
G1 X93.432 Y78.498 E101.0162
G1 X93.432 Y79.177 E101.0650
G1 X106.568 Y92.313 E102.3996
G1 X106.568 Y92.992 E102.4483
G1 X93.432 Y79.856 E103.7830
G1 X93.432 Y80.534 E103.8317
G1 X106.568 Y93.670 E105.1663
G1 X106.568 Y94.349 E105.2151
G1 X93.432 Y81.213 E106.5497
G1 X93.432 Y81.892 E106.5985
G1 X106.568 Y95.028 E107.9331
G1 X106.568 Y95.707 E107.9819
G1 X93.432 Y82.571 E109.3165
G1 X93.432 Y83.250 E109.3653
G1 X106.568 Y96.386 E110.6999
G1 X106.568 Y97.064 E110.7486
G1 X93.432 Y83.928 E112.0833
G1 X93.432 Y84.607 E112.1320
G1 X106.568 Y97.743 E113.4666
G1 X106.568 Y98.422 E113.5154
G1 X93.432 Y85.286 E114.8500
G1 X93.432 Y85.965 E114.8988
G1 X106.568 Y99.101 E116.2334
G1 X106.568 Y99.780 E116.2822
G1 X93.432 Y86.644 E117.6168
G1 X93.432 Y87.323 E117.6656
G1 X106.568 Y100.459 E119.0002
G1 X106.568 Y101.137 E119.0490
G1 X93.432 Y88.001 E120.3836
G1 X93.432 Y88.680 E120.4323
G1 X106.568 Y101.816 E121.7670
G1 X106.568 Y102.495 E121.8157
G1 X93.432 Y89.359 E123.1503
G1 X93.432 Y90.038 E123.1991
G1 X106.568 Y103.174 E124.5337
G1 X106.568 Y103.853 E124.5825
G1 X93.432 Y90.717 E125.9171
G1 X93.432 Y91.395 E125.9659
G1 X106.568 Y104.532 E127.3005
G1 X106.568 Y105.210 E127.3493
G1 X93.432 Y92.074 E128.6839
G1 X93.432 Y92.753 E128.7326
G1 X106.568 Y105.889 E130.0673
G1 X106.568 Y106.568 E130.1160
G1 X93.432 Y93.432 E131.4506
G1 X93.432 Y94.111 E131.4994
G1 X106.568 Y107.247 E132.8340
G1 X106.568 Y107.926 E132.8828
G1 X93.432 Y94.790 E134.2174
G1 X93.432 Y95.468 E134.2662
G1 X106.568 Y108.604 E135.6008
G1 X106.568 Y109.283 E135.6496
G1 X93.432 Y96.147 E136.9842
