; G-Code generated by Simplify3D(R) Version 4.0.1
; Nov 18, 2018 at 3:56:25 AM
; Settings Summary
;   processName,PLA Fast
;   applyToModels,led_case-panel-wrap_001
;   profileName,Wanhao Duplicator 6.2 (modified)
;   profileVersion,2018-10-06 23:33:11
;   baseProfile,Wanhao Duplicator 6 (modified)
;   printMaterial,PLA
;   printQuality,.Fast
;   printExtruders,
;   extruderName,Primary Extruder
;   extruderToolheadNumber,0
;   extruderDiameter,0.4
;   extruderAutoWidth,1
;   extruderWidth,0.48
;   extrusionMultiplier,0.9
;   extruderUseRetract,1
;   extruderRetractionDistance,0.65
;   extruderExtraRestartDistance,0
;   extruderRetractionZLift,0
;   extruderRetractionSpeed,2400
;   extruderUseCoasting,1
;   extruderCoastingDistance,0.2
;   extruderUseWipe,1
;   extruderWipeDistance,2
;   primaryExtruder,0
;   layerHeight,0.2
;   topSolidLayers,4
;   bottomSolidLayers,4
;   perimeterOutlines,2
;   printPerimetersInsideOut,1
;   startPointOption,2
;   startPointOriginX,0
;   startPointOriginY,0
;   sequentialIslands,1
;   spiralVaseMode,0
;   firstLayerHeightPercentage,200
;   firstLayerWidthPercentage,100
;   firstLayerUnderspeed,0.3
;   useRaft,0
;   raftExtruder,0
;   raftTopLayers,2
;   raftBaseLayers,1
;   raftOffset,3
;   raftSeparationDistance,0.14
;   raftTopInfill,100
;   aboveRaftSpeedMultiplier,0.3
;   useSkirt,1
;   skirtExtruder,0
;   skirtLayers,1
;   skirtOutlines,2
;   skirtOffset,4
;   usePrimePillar,0
;   primePillarExtruder,999
;   primePillarWidth,12
;   primePillarLocation,7
;   primePillarSpeedMultiplier,1
;   useOozeShield,0
;   oozeShieldExtruder,999
;   oozeShieldOffset,2
;   oozeShieldOutlines,1
;   oozeShieldSidewallShape,1
;   oozeShieldSidewallAngle,30
;   oozeShieldSpeedMultiplier,1
;   infillExtruder,0
;   internalInfillPattern,Rectilinear
;   externalInfillPattern,Rectilinear
;   infillPercentage,20
;   outlineOverlapPercentage,35
;   infillExtrusionWidthPercentage,125
;   minInfillLength,3
;   infillLayerInterval,1
;   internalInfillAngles,45,-45
;   overlapInternalInfillAngles,0
;   externalInfillAngles,45,-45
;   generateSupport,1
;   supportExtruder,0
;   supportInfillPercentage,40
;   supportExtraInflation,0
;   supportBaseLayers,0
;   denseSupportExtruder,0
;   denseSupportLayers,0
;   denseSupportInfillPercentage,70
;   supportLayerInterval,1
;   supportHorizontalPartOffset,0.3
;   supportUpperSeparationLayers,1
;   supportLowerSeparationLayers,1
;   supportType,0
;   supportGridSpacing,4
;   maxOverhangAngle,45
;   supportAngles,0
;   temperatureName,Primary Extruder,Heated Build Platform
;   temperatureNumber,0,1
;   temperatureSetpointCount,1,1
;   temperatureSetpointLayers,1,1
;   temperatureSetpointTemperatures,195,60
;   temperatureStabilizeAtStartup,1,1
;   temperatureHeatedBed,0,1
;   temperatureRelayBetweenLayers,0,0
;   temperatureRelayBetweenLoops,0,0
;   fanLayers,1,2,3
;   fanSpeeds,0,60,100
;   blipFanToFullPower,1
;   adjustSpeedForCooling,1
;   minSpeedLayerTime,15
;   minCoolingSpeedSlowdown,20
;   increaseFanForCooling,1
;   minFanLayerTime,10
;   maxCoolingFanSpeed,30
;   increaseFanForBridging,1
;   bridgingFanSpeed,45
;   use5D,1
;   relativeEdistances,0
;   allowEaxisZeroing,1
;   independentExtruderAxes,0
;   includeM10123,0
;   stickySupport,1
;   applyToolheadOffsets,0
;   gcodeXoffset,0
;   gcodeYoffset,0
;   gcodeZoffset,0
;   overrideMachineDefinition,1
;   machineTypeOverride,0
;   strokeXoverride,200
;   strokeYoverride,200
;   strokeZoverride,175
;   originOffsetXoverride,0
;   originOffsetYoverride,0
;   originOffsetZoverride,0
;   homeXdirOverride,-1
;   homeYdirOverride,-1
;   homeZdirOverride,-1
;   flipXoverride,1
;   flipYoverride,-1
;   flipZoverride,1
;   toolheadOffsets,0,0|0,0|0,0|0,0|0,0|0,0
;   overrideFirmwareConfiguration,1
;   firmwareTypeOverride,RepRap (Marlin/Repetier/Sprinter)
;   GPXconfigOverride,r2
;   baudRateOverride,250000
;   overridePrinterModels,1
;   printerModelsOverride
;   startingGcode,M117 Starting..,,G21 ;metric values,G90 ;absolute positioning,M82 ;set extruder to absolute mode,;M107 ;start with the fan off,;G28 X0 Y0 ;move X/Y to min endstops,;G28 Z0 ;move Z to min endstops,;G28 X0 Y0 ;move X/Y to min endstops,;G1 Z15.0 F{travel_speed} ;move the platform down 15mm,;G92 E0 ;zero the extruded length,;G1 F200 E6 ;extrude 6 mm of feed stock,;G92 E0 ;zero the extruded length again,G1 F{travel_speed},,; Duplicator 6 / Monoprice Maker Ultimate Start Script V3,M107 ; start with the fan off,G28 ; home,;G29 ; probe bed,G1 Z15 F3600 ; move the platform 15mm down from home,G0 X0 Y0 ; Rapid move X0 Y0,G92 E0 ; zero the extruded length,; perform wipe and prime,G1 X8.0 Z0.0 F3600,G1 X10.0 Z0.2 F3600,G1 X70 Z0.4 E9.0 F1000 ; prime,G1 X100.0 E22 F1000 ; prime,G1 X130 Z0.2 F9000 ; pull away wipe,G1 X140 F9000     ; finish wipe,G1 Z2 F1000 ; lift head before first move,G1 X100 Y100 F5000 ; Move nozzle to center of bed,G92 E0 ; zero extruder again,; Place printing message on LCD screen,M117 YEAH BABY
;   layerChangeGcode,
;   retractionGcode,
;   toolChangeGcode,
;   endingGcode,M117 Finishing up..,,; Duplicator 6 / Monoprice Maker Ultimate Stop Script V2,G92 E0 ; zero the extruded length,;G1 E-1.5 F500 ; retract the filament to release some of the pressure,G1 E-1 F300  ;retract the filament a bit before lifting the nozzle to release some of the pressure,M104 S0 ; turn off heater,M140 S0 ; turn off bed,M106 S0 ; turn off part fan,G91 ; relative positioning,G1 Z3 ; lower build plate a few mm,G90 ; absolute positioning,G1 Z170 F9000 ; lower build plate,G28 X0 Y0 ; move head out of the way,M84 ; disable stepper motors,
;   exportFileFormat,gcode
;   celebration,0
;   celebrationSong,Random Song
;   postProcessing,
;   defaultSpeed,3600
;   outlineUnderspeed,0.65
;   solidInfillUnderspeed,0.7
;   supportUnderspeed,0.7
;   rapidXYspeed,4800
;   rapidZspeed,300
;   minBridgingArea,5
;   bridgingExtraInflation,0
;   bridgingExtrusionMultiplier,1
;   bridgingSpeedMultiplier,0.5
;   useFixedBridgingAngle,0
;   fixedBridgingAngle,0
;   applyBridgingToPerimeters,0
;   filamentDiameters,1.75|1.75|1.75|1.75|1.75|1.75
;   filamentPricesPerKg,20|46|46|46|46|46
;   filamentDensities,1.25|1.25|1.25|1.25|1.25|1.25
;   useMinPrintHeight,0
;   minPrintHeight,0
;   useMaxPrintHeight,0
;   maxPrintHeight,0
;   useDiaphragm,1
;   diaphragmLayerInterval,10
;   robustSlicing,1
;   mergeAllIntoSolid,0
;   onlyRetractWhenCrossingOutline,1
;   retractBetweenLayers,1
;   useRetractionMinTravel,1
;   retractionMinTravel,0.02
;   retractWhileWiping,1
;   onlyWipeOutlines,1
;   avoidCrossingOutline,1
;   maxMovementDetourFactor,3
;   toolChangeRetractionDistance,0.7
;   toolChangeExtraRestartDistance,-0.5
;   toolChangeRetractionSpeed,600
;   externalThinWallType,0
;   internalThinWallType,2
;   thinWallAllowedOverlapPercentage,10
;   singleExtrusionMinLength,1
;   singleExtrusionMinPrintingWidthPercentage,50
;   singleExtrusionMaxPrintingWidthPercentage,200
;   singleExtrusionEndpointExtension,0.2
;   horizontalSizeCompensation,0
G90
M82
M106 S255
G4 P500
M106 S0
M140 S60
M190 S60
M104 S195 T0
M109 S195 T0
M117 Starting..
G21 ;metric values
G90 ;absolute positioning
M82 ;set extruder to absolute mode
;M107 ;start with the fan off
;G28 X0 Y0 ;move X/Y to min endstops
;G28 Z0 ;move Z to min endstops
;G28 X0 Y0 ;move X/Y to min endstops
;G1 Z15.0 F{travel_speed} ;move the platform down 15mm
;G92 E0 ;zero the extruded length
;G1 F200 E6 ;extrude 6 mm of feed stock
;G92 E0 ;zero the extruded length again
G1 F{travel_speed}
; Duplicator 6 / Monoprice Maker Ultimate Start Script V3
M107 ; start with the fan off
G28 ; home
;G29 ; probe bed
G1 Z15 F3600 ; move the platform 15mm down from home
G0 X0 Y0 ; Rapid move X0 Y0
G92 E0 ; zero the extruded length
; perform wipe and prime
G1 X8.0 Z0.0 F3600
G1 X10.0 Z0.2 F3600
G1 X70 Z0.4 E9.0 F1000 ; prime
G1 X100.0 E22 F1000 ; prime
G1 X130 Z0.2 F9000 ; pull away wipe
G1 X140 F9000     ; finish wipe
G1 Z2 F1000 ; lift head before first move
G1 X100 Y100 F5000 ; Move nozzle to center of bed
G92 E0 ; zero extruder again
; Place printing message on LCD screen
M117 YEAH BABY
G92 E0
G1 E-0.6500 F2400
G1 Z0.400 F300
; process PLA Fast
; layer 1, Z = 0.400
T0
; tool H0.400 W0.480
; skirt
G1 X80.753 Y32.564 F4800
G1 E0.0000 F720
G92 E0
G1 X80.863 Y32.300 E0.0206 F1080
G1 X83.409 Y29.754 E0.2792
G1 X83.673 Y29.644 E0.2998
G1 X116.327 Y29.644 E2.6457
G1 X116.591 Y29.754 E2.6663
G1 X119.137 Y32.300 E2.9249
G1 X119.247 Y32.564 E2.9455
G1 X119.247 Y167.436 E12.6349
G1 X119.137 Y167.700 E12.6555
G1 X116.591 Y170.246 E12.9141
G1 X116.327 Y170.356 E12.9347
G1 X83.673 Y170.356 E15.2806
G1 X83.409 Y170.246 E15.3012
G1 X80.863 Y167.700 E15.5598
G1 X80.753 Y167.436 E15.5804
G1 X80.753 Y32.764 E25.2554
G1 X80.753 Y32.564 F1080
G1 X81.233 Y32.660 F4800
G92 E0
G1 X81.270 Y32.572 E0.0069 F1080
G1 X83.680 Y30.161 E0.2518
G1 X83.769 Y30.124 E0.2586
G1 X116.231 Y30.124 E2.5908
G1 X116.320 Y30.161 E2.5977
G1 X118.730 Y32.572 E2.8426
G1 X118.767 Y32.660 E2.8495
G1 X118.767 Y167.340 E12.5252
G1 X118.730 Y167.428 E12.5320
G1 X116.320 Y169.839 E12.7769
G1 X116.231 Y169.876 E12.7838
G1 X83.769 Y169.876 E15.1160
G1 X83.680 Y169.839 E15.1228
G1 X81.270 Y167.428 E15.3678
G1 X81.233 Y167.340 E15.3746
G1 X81.233 Y32.860 E25.0359
G1 X81.233 Y32.660 F1080
G92 E0
G1 E-0.6500 F2400
; inner perimeter
G1 X85.708 Y34.600 F4800
G1 X85.708 Y34.847 F4800
G1 X86.193 Y35.084 F4800
G1 E0.0000 F2400
G92 E0
G1 X113.807 Y35.084 E1.9838 F891
G1 X113.807 Y164.916 E11.3111
G1 X86.193 Y164.916 E13.2949
G1 X86.193 Y35.284 E22.6079
G1 X86.193 Y35.084 F891
; outer perimeter
G1 X85.713 Y34.604 F4800
G92 E0
G1 X114.287 Y34.604 E2.0528 F702
G1 X114.287 Y165.396 E11.4491
G1 X85.713 Y165.396 E13.5018
G1 X85.713 Y34.804 E22.8838
G1 X85.713 Y34.604 F702
G1 X87.713 Y34.604 F3600
; solid layer
G1 X113.461 Y35.396 F4800
G92 E0
G1 X113.495 Y35.430 E0.0034 F756
G1 X113.495 Y36.109 E0.0522
G1 X112.782 Y35.396 E0.1246
G1 X112.103 Y35.396 E0.1734
G1 X113.495 Y36.788 E0.3147
G1 X113.495 Y37.467 E0.3635
G1 X111.425 Y35.396 E0.5738
G1 X110.746 Y35.396 E0.6226
G1 X113.495 Y38.145 E0.9019
G1 X113.495 Y38.824 E0.9507
G1 X110.067 Y35.396 E1.2989
G1 X109.388 Y35.396 E1.3477
G1 X113.495 Y39.503 E1.7649
G1 X113.495 Y40.182 E1.8137
G1 X108.709 Y35.396 E2.2999
G1 X108.030 Y35.396 E2.3487
G1 X113.495 Y40.861 E2.9039
G1 X113.495 Y41.540 E2.9526
G1 X107.352 Y35.396 E3.5768
G1 X106.673 Y35.396 E3.6255
G1 X113.495 Y42.218 E4.3186
G1 X113.495 Y42.897 E4.3674
G1 X105.994 Y35.396 E5.1295
G1 X105.315 Y35.396 E5.1783
G1 X113.495 Y43.576 E6.0093
G1 X113.495 Y44.255 E6.0581
G1 X104.636 Y35.396 E6.9581
G1 X103.957 Y35.396 E7.0069
G1 X113.495 Y44.934 E7.9758
G1 X113.495 Y45.612 E8.0246
G1 X103.279 Y35.396 E9.0626
G1 X102.600 Y35.396 E9.1113
G1 X113.495 Y46.291 E10.2183
G1 X113.495 Y46.970 E10.2670
G1 X101.921 Y35.396 E11.4429
G1 X101.242 Y35.396 E11.4917
G1 X113.495 Y47.649 E12.7365
G1 X113.495 Y48.328 E12.7853
G1 X100.563 Y35.396 E14.0991
G1 X99.885 Y35.396 E14.1479
G1 X113.495 Y49.007 E15.5307
G1 X113.495 Y49.685 E15.5795
G1 X99.206 Y35.396 E17.0312
G1 X98.527 Y35.396 E17.0800
G1 X113.495 Y50.364 E18.6007
G1 X113.495 Y51.043 E18.6495
G1 X97.848 Y35.396 E20.2392
G1 X97.169 Y35.396 E20.2880
G1 X113.495 Y51.722 E21.9466
G1 X113.495 Y52.401 E21.9954
G1 X96.490 Y35.396 E23.7230
G1 X95.812 Y35.396 E23.7718
G1 X113.495 Y53.080 E25.5684
G1 X113.495 Y53.758 E25.6172
G1 X95.133 Y35.396 E27.4827
G1 X94.454 Y35.396 E27.5315
G1 X113.495 Y54.437 E29.4660
G1 X113.495 Y55.116 E29.5148
G1 X93.775 Y35.396 E31.5183
G1 X93.096 Y35.396 E31.5671
G1 X113.495 Y55.795 E33.6396
G1 X113.495 Y56.474 E33.6883
G1 X92.417 Y35.396 E35.8298
G1 X91.739 Y35.396 E35.8785
G1 X113.495 Y57.152 E38.0889
G1 X113.495 Y57.831 E38.1377
G1 X91.060 Y35.396 E40.4171
G1 X90.381 Y35.396 E40.4659
G1 X113.495 Y58.510 E42.8142
G1 X113.495 Y59.189 E42.8630
G1 X89.702 Y35.396 E45.2803
G1 X89.023 Y35.396 E45.3291
G1 X113.495 Y59.868 E47.8153
G1 X113.495 Y60.547 E47.8641
G1 X88.345 Y35.396 E50.4194
G1 X87.666 Y35.396 E50.4681
G1 X113.495 Y61.225 E53.0924
G1 X113.495 Y61.904 E53.1411
G1 X86.987 Y35.396 E55.8343
G1 X86.505 Y35.396 E55.8689
G1 X86.505 Y35.594 E55.8831
G1 X113.495 Y62.583 E58.6252
G1 X113.495 Y63.262 E58.6740
G1 X86.505 Y36.272 E61.4161
G1 X86.505 Y36.951 E61.4649
G1 X113.495 Y63.941 E64.2070
G1 X113.495 Y64.619 E64.2558
G1 X86.505 Y37.630 E66.9979
G1 X86.505 Y38.309 E67.0466
G1 X113.495 Y65.298 E69.7888
G1 X113.495 Y65.977 E69.8375
G1 X86.505 Y38.988 E72.5797
G1 X86.505 Y39.666 E72.6284
G1 X113.495 Y66.656 E75.3706
G1 X113.495 Y67.335 E75.4193
G1 X86.505 Y40.345 E78.1614
G1 X86.505 Y41.024 E78.2102
G1 X113.495 Y68.014 E80.9523
G1 X113.495 Y68.692 E81.0011
G1 X86.505 Y41.703 E83.7432
G1 X86.505 Y42.382 E83.7920
G1 X113.495 Y69.371 E86.5341
G1 X113.495 Y70.050 E86.5829
G1 X86.505 Y43.061 E89.3250
G1 X86.505 Y43.739 E89.3738
G1 X113.495 Y70.729 E92.1159
G1 X113.495 Y71.408 E92.1647
G1 X86.505 Y44.418 E94.9068
G1 X86.505 Y45.097 E94.9556
G1 X113.495 Y72.087 E97.6977
G1 X113.495 Y72.765 E97.7464
G1 X86.505 Y45.776 E100.4886
G1 X86.505 Y46.455 E100.5373
G1 X113.495 Y73.444 E103.2795
G1 X113.495 Y74.123 E103.3282
G1 X86.505 Y47.134 E106.0704
G1 X86.505 Y47.812 E106.1191
G1 X113.495 Y74.802 E108.8612
G1 X113.495 Y75.481 E108.9100
G1 X86.505 Y48.491 E111.6521
G1 X86.505 Y49.170 E111.7009
G1 X113.495 Y76.159 E114.4430
G1 X113.495 Y76.838 E114.4918
G1 X86.505 Y49.849 E117.2339
G1 X86.505 Y50.528 E117.2827
G1 X113.495 Y77.517 E120.0248
G1 X113.495 Y78.196 E120.0736
G1 X86.505 Y51.206 E122.8157
G1 X86.505 Y51.885 E122.8645
G1 X113.495 Y78.875 E125.6066
G1 X113.495 Y79.554 E125.6554
G1 X86.505 Y52.564 E128.3975
G1 X86.505 Y53.243 E128.4462
G1 X113.495 Y80.232 E131.1884
G1 X113.495 Y80.911 E131.2371
G1 X86.505 Y53.922 E133.9793
G1 X86.505 Y54.601 E134.0280
G1 X113.495 Y81.590 E136.7702
G1 X113.495 Y82.269 E136.8189
G1 X86.505 Y55.279 E139.5610
G1 X86.505 Y55.958 E139.6098
G1 X113.495 Y82.948 E142.3519
G1 X113.495 Y83.627 E142.4007
G1 X86.505 Y56.637 E145.1428
G1 X86.505 Y57.316 E145.1916
G1 X113.495 Y84.305 E147.9337
G1 X113.495 Y84.984 E147.9825
G1 X86.505 Y57.995 E150.7246
G1 X86.505 Y58.674 E150.7734
G1 X113.495 Y85.663 E153.5155
G1 X113.495 Y86.342 E153.5643
G1 X86.505 Y59.352 E156.3064
G1 X86.505 Y60.031 E156.3552
G1 X113.495 Y87.021 E159.0973
G1 X113.495 Y87.699 E159.1460
G1 X86.505 Y60.710 E161.8882
G1 X86.505 Y61.389 E161.9369
G1 X113.495 Y88.378 E164.6791
G1 X113.495 Y89.057 E164.7278
G1 X86.505 Y62.068 E167.4700
G1 X86.505 Y62.746 E167.5187
G1 X113.495 Y89.736 E170.2608
G1 X113.495 Y90.415 E170.3096
G1 X86.505 Y63.425 E173.0517
G1 X86.505 Y64.104 E173.1005
G1 X113.495 Y91.094 E175.8426
G1 X113.495 Y91.772 E175.8914
G1 X86.505 Y64.783 E178.6335
G1 X86.505 Y65.462 E178.6823
G1 X113.495 Y92.451 E181.4244
G1 X113.495 Y93.130 E181.4732
G1 X86.505 Y66.141 E184.2153
G1 X86.505 Y66.819 E184.2641
G1 X113.495 Y93.809 E187.0062
G1 X113.495 Y94.488 E187.0550
G1 X86.505 Y67.498 E189.7971
G1 X86.505 Y68.177 E189.8459
G1 X113.495 Y95.167 E192.5880
G1 X113.495 Y95.845 E192.6367
G1 X86.505 Y68.856 E195.3789
G1 X86.505 Y69.535 E195.4276
G1 X113.495 Y96.524 E198.1698
G1 X113.495 Y97.203 E198.2185
G1 X86.505 Y70.214 E200.9606
G1 X86.505 Y70.892 E201.0094
G1 X113.495 Y97.882 E203.7515
G1 X113.495 Y98.561 E203.8003
G1 X86.505 Y71.571 E206.5424
G1 X86.505 Y72.250 E206.5912
G1 X113.495 Y99.239 E209.3333
G1 X113.495 Y99.918 E209.3821
G1 X86.505 Y72.929 E212.1242
G1 X86.505 Y73.608 E212.1730
G1 X113.495 Y100.597 E214.9151
G1 X113.495 Y101.276 E214.9639
G1 X86.505 Y74.286 E217.7060
G1 X86.505 Y74.965 E217.7548
G1 X113.495 Y101.955 E220.4969
G1 X113.495 Y102.634 E220.5457
G1 X86.505 Y75.644 E223.2878
G1 X86.505 Y76.323 E223.3365
G1 X113.495 Y103.312 E226.0787
G1 X113.495 Y103.991 E226.1274
G1 X86.505 Y77.002 E228.8696
G1 X86.505 Y77.681 E228.9183
G1 X113.495 Y104.670 E231.6604
G1 X113.495 Y105.349 E231.7092
G1 X86.505 Y78.359 E234.4513
G1 X86.505 Y79.038 E234.5001
G1 X113.495 Y106.028 E237.2422
G1 X113.495 Y106.706 E237.2910
G1 X86.505 Y79.717 E240.0331
