; G-Code generated by Simplify3D(R) Version 4.0.1
; Nov 14, 2018 at 9:54:34 AM
; Settings Summary
;   processName,PLA Medium
;   applyToModels,P3_matrix_mesh.stl-P3_matrix_mesh_001
;   profileName,Wanhao Duplicator 6.2
;   profileVersion,2018-10-06 23:33:11
;   baseProfile,Wanhao Duplicator 6 (modified)
;   printMaterial,PLA
;   printQuality,.Medium
;   printExtruders,
;   extruderName,Primary Extruder
;   extruderToolheadNumber,0
;   extruderDiameter,0.4
;   extruderAutoWidth,1
;   extruderWidth,0.48
;   extrusionMultiplier,0.9
;   extruderUseRetract,1
;   extruderRetractionDistance,0.65
;   extruderExtraRestartDistance,0
;   extruderRetractionZLift,0
;   extruderRetractionSpeed,2400
;   extruderUseCoasting,1
;   extruderCoastingDistance,0.2
;   extruderUseWipe,1
;   extruderWipeDistance,2
;   primaryExtruder,0
;   layerHeight,0.2
;   topSolidLayers,4
;   bottomSolidLayers,4
;   perimeterOutlines,2
;   printPerimetersInsideOut,1
;   startPointOption,2
;   startPointOriginX,0
;   startPointOriginY,0
;   sequentialIslands,1
;   spiralVaseMode,0
;   firstLayerHeightPercentage,200
;   firstLayerWidthPercentage,100
;   firstLayerUnderspeed,0.3
;   useRaft,0
;   raftExtruder,0
;   raftTopLayers,2
;   raftBaseLayers,1
;   raftOffset,3
;   raftSeparationDistance,0.14
;   raftTopInfill,100
;   aboveRaftSpeedMultiplier,0.3
;   useSkirt,1
;   skirtExtruder,0
;   skirtLayers,1
;   skirtOutlines,2
;   skirtOffset,4
;   usePrimePillar,0
;   primePillarExtruder,999
;   primePillarWidth,12
;   primePillarLocation,7
;   primePillarSpeedMultiplier,1
;   useOozeShield,0
;   oozeShieldExtruder,999
;   oozeShieldOffset,2
;   oozeShieldOutlines,1
;   oozeShieldSidewallShape,1
;   oozeShieldSidewallAngle,30
;   oozeShieldSpeedMultiplier,1
;   infillExtruder,0
;   internalInfillPattern,Rectilinear
;   externalInfillPattern,Rectilinear
;   infillPercentage,20
;   outlineOverlapPercentage,35
;   infillExtrusionWidthPercentage,125
;   minInfillLength,3
;   infillLayerInterval,2
;   internalInfillAngles,45,-45
;   overlapInternalInfillAngles,0
;   externalInfillAngles,45,-45
;   generateSupport,1
;   supportExtruder,0
;   supportInfillPercentage,40
;   supportExtraInflation,0
;   supportBaseLayers,0
;   denseSupportExtruder,0
;   denseSupportLayers,0
;   denseSupportInfillPercentage,70
;   supportLayerInterval,2
;   supportHorizontalPartOffset,0.3
;   supportUpperSeparationLayers,1
;   supportLowerSeparationLayers,1
;   supportType,0
;   supportGridSpacing,4
;   maxOverhangAngle,45
;   supportAngles,0
;   temperatureName,Primary Extruder,Heated Build Platform
;   temperatureNumber,0,1
;   temperatureSetpointCount,1,1
;   temperatureSetpointLayers,1,1
;   temperatureSetpointTemperatures,195,60
;   temperatureStabilizeAtStartup,1,1
;   temperatureHeatedBed,0,1
;   temperatureRelayBetweenLayers,0,0
;   temperatureRelayBetweenLoops,0,0
;   fanLayers,1,2,3
;   fanSpeeds,0,60,100
;   blipFanToFullPower,1
;   adjustSpeedForCooling,1
;   minSpeedLayerTime,15
;   minCoolingSpeedSlowdown,20
;   increaseFanForCooling,1
;   minFanLayerTime,10
;   maxCoolingFanSpeed,30
;   increaseFanForBridging,1
;   bridgingFanSpeed,45
;   use5D,1
;   relativeEdistances,0
;   allowEaxisZeroing,1
;   independentExtruderAxes,0
;   includeM10123,0
;   stickySupport,1
;   applyToolheadOffsets,0
;   gcodeXoffset,0
;   gcodeYoffset,0
;   gcodeZoffset,0
;   overrideMachineDefinition,1
;   machineTypeOverride,0
;   strokeXoverride,200
;   strokeYoverride,200
;   strokeZoverride,175
;   originOffsetXoverride,0
;   originOffsetYoverride,0
;   originOffsetZoverride,0
;   homeXdirOverride,-1
;   homeYdirOverride,-1
;   homeZdirOverride,-1
;   flipXoverride,1
;   flipYoverride,-1
;   flipZoverride,1
;   toolheadOffsets,0,0|0,0|0,0|0,0|0,0|0,0
;   overrideFirmwareConfiguration,1
;   firmwareTypeOverride,RepRap (Marlin/Repetier/Sprinter)
;   GPXconfigOverride,r2
;   baudRateOverride,250000
;   overridePrinterModels,1
;   printerModelsOverride
;   startingGcode,M117 Starting..,,G21 ;metric values,G90 ;absolute positioning,M82 ;set extruder to absolute mode,;M107 ;start with the fan off,;G28 X0 Y0 ;move X/Y to min endstops,;G28 Z0 ;move Z to min endstops,;G28 X0 Y0 ;move X/Y to min endstops,;G1 Z15.0 F{travel_speed} ;move the platform down 15mm,;G92 E0 ;zero the extruded length,;G1 F200 E6 ;extrude 6 mm of feed stock,;G92 E0 ;zero the extruded length again,G1 F{travel_speed},,; Duplicator 6 / Monoprice Maker Ultimate Start Script V3,M107 ; start with the fan off,G28 ; home,;G29 ; probe bed,G1 Z15 F3600 ; move the platform 15mm down from home,G0 X0 Y0 ; Rapid move X0 Y0,G92 E0 ; zero the extruded length,; perform wipe and prime,G1 X8.0 Z0.0 F3600,G1 X10.0 Z0.2 F3600,G1 X70 Z0.4 E9.0 F1000 ; prime,G1 X100.0 E22 F1000 ; prime,G1 X130 Z0.2 F9000 ; pull away wipe,G1 X140 F9000     ; finish wipe,G1 Z2 F1000 ; lift head before first move,G1 X100 Y100 F5000 ; Move nozzle to center of bed,G92 E0 ; zero extruder again,; Place printing message on LCD screen,M117 YEAH BABY
;   layerChangeGcode,
;   retractionGcode,
;   toolChangeGcode,
;   endingGcode,M117 Finishing up..,,; Duplicator 6 / Monoprice Maker Ultimate Stop Script V2,G92 E0 ; zero the extruded length,;G1 E-1.5 F500 ; retract the filament to release some of the pressure,G1 E-1 F300  ;retract the filament a bit before lifting the nozzle to release some of the pressure,M104 S0 ; turn off heater,M140 S0 ; turn off bed,M106 S0 ; turn off part fan,G91 ; relative positioning,G1 Z3 ; lower build plate a few mm,G90 ; absolute positioning,G1 Z170 F9000 ; lower build plate,G28 X0 Y0 ; move head out of the way,M84 ; disable stepper motors,
;   exportFileFormat,gcode
;   celebration,0
;   celebrationSong,Random Song
;   postProcessing,
;   defaultSpeed,3000
;   outlineUnderspeed,0.65
;   solidInfillUnderspeed,0.7
;   supportUnderspeed,0.7
;   rapidXYspeed,4800
;   rapidZspeed,300
;   minBridgingArea,5
;   bridgingExtraInflation,0
;   bridgingExtrusionMultiplier,1
;   bridgingSpeedMultiplier,0.5
;   useFixedBridgingAngle,0
;   fixedBridgingAngle,0
;   applyBridgingToPerimeters,0
;   filamentDiameters,1.75|1.75|1.75|1.75|1.75|1.75
;   filamentPricesPerKg,20|46|46|46|46|46
;   filamentDensities,1.25|1.25|1.25|1.25|1.25|1.25
;   useMinPrintHeight,0
;   minPrintHeight,0
;   useMaxPrintHeight,0
;   maxPrintHeight,0
;   useDiaphragm,1
;   diaphragmLayerInterval,20
;   robustSlicing,1
;   mergeAllIntoSolid,0
;   onlyRetractWhenCrossingOutline,1
;   retractBetweenLayers,1
;   useRetractionMinTravel,1
;   retractionMinTravel,0.02
;   retractWhileWiping,1
;   onlyWipeOutlines,1
;   avoidCrossingOutline,1
;   maxMovementDetourFactor,3
;   toolChangeRetractionDistance,0.7
;   toolChangeExtraRestartDistance,-0.5
;   toolChangeRetractionSpeed,600
;   externalThinWallType,0
;   internalThinWallType,2
;   thinWallAllowedOverlapPercentage,10
;   singleExtrusionMinLength,1
;   singleExtrusionMinPrintingWidthPercentage,50
;   singleExtrusionMaxPrintingWidthPercentage,200
;   singleExtrusionEndpointExtension,0.2
;   horizontalSizeCompensation,0
G90
M82
M106 S255
G4 P500
M106 S0
M140 S60
M190 S60
M104 S195 T0
M109 S195 T0
M117 Starting..
G21 ;metric values
G90 ;absolute positioning
M82 ;set extruder to absolute mode
;M107 ;start with the fan off
;G28 X0 Y0 ;move X/Y to min endstops
;G28 Z0 ;move Z to min endstops
;G28 X0 Y0 ;move X/Y to min endstops
;G1 Z15.0 F{travel_speed} ;move the platform down 15mm
;G92 E0 ;zero the extruded length
;G1 F200 E6 ;extrude 6 mm of feed stock
;G92 E0 ;zero the extruded length again
G1 F{travel_speed}
; Duplicator 6 / Monoprice Maker Ultimate Start Script V3
M107 ; start with the fan off
G28 ; home
;G29 ; probe bed
G1 Z15 F3600 ; move the platform 15mm down from home
G0 X0 Y0 ; Rapid move X0 Y0
G92 E0 ; zero the extruded length
; perform wipe and prime
G1 X8.0 Z0.0 F3600
G1 X10.0 Z0.2 F3600
G1 X70 Z0.4 E9.0 F1000 ; prime
G1 X100.0 E22 F1000 ; prime
G1 X130 Z0.2 F9000 ; pull away wipe
G1 X140 F9000     ; finish wipe
G1 Z2 F1000 ; lift head before first move
G1 X100 Y100 F5000 ; Move nozzle to center of bed
G92 E0 ; zero extruder again
; Place printing message on LCD screen
M117 YEAH BABY
G92 E0
G1 E-0.6500 F2400
G1 Z0.400 F300
; process PLA Medium
; layer 1, Z = 0.400
T0
; tool H0.400 W0.480
; skirt
G1 X63.108 Y33.655 F4800
G1 E0.0000 F720
G92 E0
G1 X65.654 Y31.109 E0.2586 F900
G1 X65.918 Y30.999 E0.2792
G1 X134.082 Y30.999 E5.1762
G1 X134.346 Y31.109 E5.1968
G1 X136.892 Y33.655 E5.4554
G1 X137.002 Y33.919 E5.4760
G1 X137.002 Y166.081 E14.9708
G1 X136.892 Y166.345 E14.9913
G1 X134.346 Y168.891 E15.2500
G1 X134.082 Y169.001 E15.2706
G1 X65.918 Y169.001 E20.1676
G1 X65.654 Y168.891 E20.1881
G1 X63.108 Y166.345 E20.4468
G1 X62.998 Y166.081 E20.4674
G1 X62.998 Y33.919 E29.9621
G1 X63.031 Y33.839 E29.9683
G1 X63.108 Y33.655 F900
G1 X63.515 Y33.926 F4800
G92 E0
G1 X65.925 Y31.516 E0.2449 F900
G1 X66.014 Y31.479 E0.2518
G1 X133.986 Y31.479 E5.1351
G1 X134.075 Y31.516 E5.1419
G1 X136.485 Y33.926 E5.3868
G1 X136.522 Y34.015 E5.3937
G1 X136.522 Y165.985 E14.8747
G1 X136.485 Y166.074 E14.8816
G1 X134.075 Y168.484 E15.1265
G1 X133.986 Y168.521 E15.1334
G1 X66.014 Y168.521 E20.0167
G1 X65.925 Y168.484 E20.0235
G1 X63.515 Y166.074 E20.2684
G1 X63.478 Y165.985 E20.2753
G1 X63.478 Y34.119 E29.7488
G1 X63.478 Y34.015 F900
G1 X63.515 Y33.926 F900
G92 E0
G1 E-0.6500 F2400
; outer perimeter
G1 X67.953 Y35.954 F4800
G1 X67.953 Y35.957 F4800
G1 X67.958 Y35.959 F4800
G1 E0.0000 F2400
G92 E0
G1 X132.042 Y35.959 E4.6039 F585
G1 X132.042 Y164.041 E13.8055
G1 X67.958 Y164.041 E18.4094
G1 X67.958 Y36.159 E27.5966
G1 X67.958 Y35.959 F585
G1 X69.958 Y35.959 F3000
G1 X69.979 Y36.044 F4800
G1 X68.043 Y36.044 F4800
G1 X68.043 Y39.955 F4800
G1 X70.927 Y39.955 F4800
G1 X70.949 Y40.044 F4800
G1 X71.953 Y40.044 F4800
G1 X71.953 Y43.955 F4800
G1 X71.896 Y43.955 F4800
G1 X71.918 Y44.044 F4800
G1 X71.953 Y44.044 F4800
G1 X71.953 Y44.190 F4800
G1 X72.043 Y44.559 F4800
G1 X72.043 Y47.955 F4800
G1 X72.866 Y47.955 F4800
G1 X72.888 Y48.044 F4800
G1 X72.043 Y48.044 F4800
G1 X72.043 Y51.955 F4800
G1 X73.836 Y51.955 F4800
G1 X73.858 Y52.044 F4800
G1 X72.043 Y52.044 F4800
G1 X72.043 Y55.955 F4800
G1 X74.806 Y55.955 F4800
G1 X74.827 Y56.044 F4800
G1 X75.953 Y56.044 F4800
G1 X75.953 Y59.955 F4800
G1 X75.775 Y59.955 F4800
G1 X75.797 Y60.044 F4800
G1 X75.953 Y60.044 F4800
G1 X75.953 Y60.690 F4800
G1 X76.043 Y61.059 F4800
G1 X76.043 Y63.955 F4800
G1 X76.745 Y63.955 F4800
G1 X76.767 Y64.044 F4800
G1 X76.043 Y64.044 F4800
G1 X76.043 Y67.955 F4800
G1 X77.715 Y67.955 F4800
G1 X77.736 Y68.044 F4800
G1 X76.043 Y68.044 F4800
G1 X76.043 Y71.955 F4800
G1 X78.684 Y71.955 F4800
G1 X78.706 Y72.044 F4800
G1 X79.953 Y72.044 F4800
G1 X79.953 Y75.955 F4800
G1 X79.654 Y75.955 F4800
G1 X79.676 Y76.044 F4800
G1 X79.953 Y76.044 F4800
G1 X79.953 Y77.190 F4800
G1 X80.043 Y77.560 F4800
G1 X80.043 Y79.955 F4800
G1 X80.624 Y79.955 F4800
G1 X80.645 Y80.045 F4800
G1 X80.043 Y80.045 F4800
G1 X80.043 Y83.955 F4800
G1 X81.593 Y83.955 F4800
G1 X81.615 Y84.045 F4800
G1 X80.043 Y84.045 F4800
G1 X80.043 Y87.955 F4800
G1 X82.563 Y87.955 F4800
G1 X82.585 Y88.045 F4800
G1 X83.953 Y88.045 F4800
G1 X83.953 Y91.955 F4800
G1 X83.533 Y91.955 F4800
G1 X83.555 Y92.045 F4800
G1 X83.953 Y92.045 F4800
G1 X83.953 Y93.690 F4800
G1 X84.043 Y94.060 F4800
G1 X84.043 Y95.955 F4800
G1 X84.503 Y95.955 F4800
G1 X84.524 Y96.045 F4800
G1 X84.043 Y96.045 F4800
G1 X84.043 Y99.955 F4800
G1 X85.472 Y99.955 F4800
G1 X85.494 Y100.045 F4800
G1 X84.043 Y100.045 F4800
G1 X84.043 Y103.955 F4800
G1 X86.442 Y103.955 F4800
G1 X86.464 Y104.045 F4800
G1 X87.953 Y104.045 F4800
G1 X87.953 Y107.955 F4800
G1 X87.412 Y107.955 F4800
G1 X87.433 Y108.045 F4800
G1 X87.953 Y108.045 F4800
G1 X87.953 Y110.190 F4800
G1 X88.043 Y110.560 F4800
G1 X88.043 Y111.955 F4800
G1 X88.381 Y111.955 F4800
G1 X88.403 Y112.045 F4800
G1 X88.043 Y112.045 F4800
G1 X88.043 Y115.955 F4800
G1 X89.351 Y115.955 F4800
G1 X89.373 Y116.045 F4800
G1 X88.043 Y116.045 F4800
G1 X88.043 Y119.955 F4800
G1 X90.321 Y119.955 F4800
G1 X90.342 Y120.045 F4800
G1 X91.953 Y120.045 F4800
G1 X91.953 Y123.955 F4800
G1 X91.290 Y123.955 F4800
G1 X91.312 Y124.045 F4800
G1 X91.953 Y124.045 F4800
G1 X91.953 Y126.691 F4800
G1 X92.043 Y127.060 F4800
G1 X92.043 Y127.956 F4800
G1 X92.260 Y127.956 F4800
G1 X92.282 Y128.045 F4800
G1 X92.043 Y128.045 F4800
G1 X92.043 Y131.956 F4800
G1 X93.230 Y131.956 F4800
G1 X93.252 Y132.045 F4800
G1 X92.043 Y132.045 F4800
G1 X92.043 Y135.956 F4800
G1 X94.199 Y135.956 F4800
G1 X94.221 Y136.045 F4800
G1 X95.953 Y136.045 F4800
G1 X95.953 Y139.956 F4800
G1 X95.169 Y139.956 F4800
G1 X95.191 Y140.045 F4800
G1 X95.953 Y140.045 F4800
G1 X95.953 Y143.191 F4800
G1 X96.043 Y143.560 F4800
G1 X96.043 Y143.956 F4800
G1 X96.139 Y143.956 F4800
G1 X96.161 Y144.045 F4800
G1 X96.043 Y144.045 F4800
G1 X96.043 Y147.956 F4800
G1 X97.109 Y147.956 F4800
G1 X97.130 Y148.045 F4800
G1 X96.043 Y148.045 F4800
G1 X96.043 Y151.956 F4800
G1 X98.078 Y151.956 F4800
G1 X98.100 Y152.045 F4800
G1 X99.953 Y152.045 F4800
G1 X99.953 Y155.956 F4800
G1 X99.048 Y155.956 F4800
G1 X99.070 Y156.045 F4800
G1 X99.953 Y156.045 F4800
G1 X99.953 Y159.691 F4800
G1 X100.038 Y160.041 F4800
G92 E0
G1 X100.038 Y163.961 E0.2816 F585
G1 X103.958 Y163.961 E0.5632
G1 X103.958 Y160.041 E0.8449
G1 X100.238 Y160.041 E1.1121
G1 X100.038 Y160.041 F585
G1 X100.038 Y162.041 F3000
G1 X100.043 Y162.041 F4800
G1 X100.043 Y163.956 F4800
G1 X103.953 Y163.956 F4800
G1 X103.953 Y162.309 F4800
G1 X104.043 Y162.315 F4800
G1 X104.043 Y163.956 F4800
G1 X107.953 Y163.956 F4800
G1 X107.953 Y162.583 F4800
G1 X108.043 Y162.590 F4800
G1 X108.043 Y163.956 F4800
G1 X111.953 Y163.956 F4800
G1 X111.953 Y162.858 F4800
G1 X112.043 Y162.864 F4800
G1 X112.043 Y163.956 F4800
G1 X115.953 Y163.956 F4800
G1 X115.953 Y163.132 F4800
G1 X116.043 Y163.138 F4800
G1 X116.043 Y163.956 F4800
G1 X119.953 Y163.956 F4800
G1 X119.953 Y163.406 F4800
G1 X120.043 Y163.412 F4800
G1 X120.043 Y163.956 F4800
G1 X123.953 Y163.956 F4800
G1 X123.953 Y163.681 F4800
G1 X124.043 Y163.687 F4800
G1 X124.043 Y163.956 F4800
G1 X127.953 Y163.956 F4800
G1 X128.038 Y163.961 F4800
G92 E0
G1 X131.958 Y163.961 E0.2816 F585
G1 X131.958 Y160.041 E0.5632
G1 X128.038 Y160.041 E0.8449
G1 X128.038 Y163.761 E1.1121
G1 X128.038 Y163.961 F585
G1 X130.038 Y163.961 F3000
G1 X127.958 Y163.961 F4800
G92 E0
G1 X127.958 Y160.041 E0.2816 F585
G1 X124.038 Y160.041 E0.5632
G1 X124.038 Y163.961 E0.8449
G1 X127.758 Y163.961 E1.1121
G1 X127.958 Y163.961 F585
G1 X127.958 Y161.961 F3000
G1 X127.953 Y161.958 F4800
G1 X127.953 Y160.045 F4800
G1 X124.043 Y160.045 F4800
G1 X124.043 Y160.081 F4800
G1 X123.958 Y160.041 F4800
G92 E0
G1 X120.038 Y160.041 E0.2816 F585
G1 X120.038 Y163.961 E0.5632
G1 X123.958 Y163.961 E0.8449
G1 X123.958 Y160.241 E1.1121
G1 X123.958 Y160.041 F585
G1 X121.958 Y160.041 F3000
G1 X119.958 Y160.041 F4800
G92 E0
G1 X116.038 Y160.041 E0.2816 F585
G1 X116.038 Y163.961 E0.5632
G1 X119.958 Y163.961 E0.8449
G1 X119.958 Y160.241 E1.1121
G1 X119.958 Y160.041 F585
G1 X117.958 Y160.041 F3000
G1 X115.958 Y160.041 F4800
G92 E0
G1 X112.038 Y160.041 E0.2816 F585
G1 X112.038 Y163.961 E0.5632
G1 X115.958 Y163.961 E0.8449
G1 X115.958 Y160.241 E1.1121
G1 X115.958 Y160.041 F585
G1 X113.958 Y160.041 F3000
G1 X111.958 Y160.041 F4800
G92 E0
G1 X108.038 Y160.041 E0.2816 F585
G1 X108.038 Y163.961 E0.5632
G1 X111.958 Y163.961 E0.8449
G1 X111.958 Y160.241 E1.1121
G1 X111.958 Y160.041 F585
G1 X109.958 Y160.041 F3000
G1 X107.958 Y160.041 F4800
G92 E0
G1 X104.038 Y160.041 E0.2816 F585
G1 X104.038 Y163.961 E0.5632
G1 X107.958 Y163.961 E0.8449
G1 X107.958 Y160.241 E1.1121
G1 X107.958 Y160.041 F585
G1 X105.958 Y160.041 F3000
G1 X99.958 Y160.041 F4800
G92 E0
G1 X96.038 Y160.041 E0.2816 F585
G1 X96.038 Y163.961 E0.5632
G1 X99.958 Y163.961 E0.8449
G1 X99.958 Y160.241 E1.1121
G1 X99.958 Y160.041 F585
G1 X97.958 Y160.041 F3000
G1 X95.958 Y160.041 F4800
G92 E0
G1 X92.038 Y160.041 E0.2816 F585
G1 X92.038 Y163.961 E0.5632
G1 X95.958 Y163.961 E0.8449
G1 X95.958 Y160.241 E1.1121
G1 X95.958 Y160.041 F585
G1 X93.958 Y160.041 F3000
