; G-Code generated by Simplify3D(R) Version 4.0.1
; Nov 11, 2018 at 2:04:06 AM
; Settings Summary
;   processName,PLA Medium
;   applyToModels,untitled-Cube_009
;   profileName,Wanhao Duplicator 6.2
;   profileVersion,2018-10-06 23:33:11
;   baseProfile,Wanhao Duplicator 6 (modified)
;   printMaterial,PLA
;   printQuality,.Medium
;   printExtruders,
;   extruderName,Primary Extruder
;   extruderToolheadNumber,0
;   extruderDiameter,0.4
;   extruderAutoWidth,1
;   extruderWidth,0.48
;   extrusionMultiplier,0.9
;   extruderUseRetract,1
;   extruderRetractionDistance,0.65
;   extruderExtraRestartDistance,0
;   extruderRetractionZLift,0
;   extruderRetractionSpeed,2400
;   extruderUseCoasting,1
;   extruderCoastingDistance,0.2
;   extruderUseWipe,1
;   extruderWipeDistance,2
;   primaryExtruder,0
;   layerHeight,0.2
;   topSolidLayers,4
;   bottomSolidLayers,4
;   perimeterOutlines,2
;   printPerimetersInsideOut,1
;   startPointOption,2
;   startPointOriginX,0
;   startPointOriginY,0
;   sequentialIslands,1
;   spiralVaseMode,0
;   firstLayerHeightPercentage,200
;   firstLayerWidthPercentage,100
;   firstLayerUnderspeed,0.3
;   useRaft,0
;   raftExtruder,0
;   raftTopLayers,2
;   raftBaseLayers,1
;   raftOffset,3
;   raftSeparationDistance,0.14
;   raftTopInfill,100
;   aboveRaftSpeedMultiplier,0.3
;   useSkirt,1
;   skirtExtruder,0
;   skirtLayers,1
;   skirtOutlines,2
;   skirtOffset,4
;   usePrimePillar,0
;   primePillarExtruder,999
;   primePillarWidth,12
;   primePillarLocation,7
;   primePillarSpeedMultiplier,1
;   useOozeShield,0
;   oozeShieldExtruder,999
;   oozeShieldOffset,2
;   oozeShieldOutlines,1
;   oozeShieldSidewallShape,1
;   oozeShieldSidewallAngle,30
;   oozeShieldSpeedMultiplier,1
;   infillExtruder,0
;   internalInfillPattern,Rectilinear
;   externalInfillPattern,Rectilinear
;   infillPercentage,20
;   outlineOverlapPercentage,35
;   infillExtrusionWidthPercentage,125
;   minInfillLength,3
;   infillLayerInterval,2
;   internalInfillAngles,45,-45
;   overlapInternalInfillAngles,0
;   externalInfillAngles,45,-45
;   generateSupport,1
;   supportExtruder,0
;   supportInfillPercentage,40
;   supportExtraInflation,0
;   supportBaseLayers,0
;   denseSupportExtruder,0
;   denseSupportLayers,0
;   denseSupportInfillPercentage,70
;   supportLayerInterval,2
;   supportHorizontalPartOffset,0.3
;   supportUpperSeparationLayers,1
;   supportLowerSeparationLayers,1
;   supportType,0
;   supportGridSpacing,4
;   maxOverhangAngle,45
;   supportAngles,0
;   temperatureName,Primary Extruder,Heated Build Platform
;   temperatureNumber,0,1
;   temperatureSetpointCount,1,1
;   temperatureSetpointLayers,1,1
;   temperatureSetpointTemperatures,195,60
;   temperatureStabilizeAtStartup,1,1
;   temperatureHeatedBed,0,1
;   temperatureRelayBetweenLayers,0,0
;   temperatureRelayBetweenLoops,0,0
;   fanLayers,1,2,3
;   fanSpeeds,0,60,100
;   blipFanToFullPower,1
;   adjustSpeedForCooling,1
;   minSpeedLayerTime,15
;   minCoolingSpeedSlowdown,20
;   increaseFanForCooling,1
;   minFanLayerTime,10
;   maxCoolingFanSpeed,30
;   increaseFanForBridging,1
;   bridgingFanSpeed,45
;   use5D,1
;   relativeEdistances,0
;   allowEaxisZeroing,1
;   independentExtruderAxes,0
;   includeM10123,0
;   stickySupport,1
;   applyToolheadOffsets,0
;   gcodeXoffset,0
;   gcodeYoffset,0
;   gcodeZoffset,0
;   overrideMachineDefinition,1
;   machineTypeOverride,0
;   strokeXoverride,200
;   strokeYoverride,200
;   strokeZoverride,175
;   originOffsetXoverride,0
;   originOffsetYoverride,0
;   originOffsetZoverride,0
;   homeXdirOverride,-1
;   homeYdirOverride,-1
;   homeZdirOverride,-1
;   flipXoverride,1
;   flipYoverride,-1
;   flipZoverride,1
;   toolheadOffsets,0,0|0,0|0,0|0,0|0,0|0,0
;   overrideFirmwareConfiguration,1
;   firmwareTypeOverride,RepRap (Marlin/Repetier/Sprinter)
;   GPXconfigOverride,r2
;   baudRateOverride,250000
;   overridePrinterModels,1
;   printerModelsOverride
;   startingGcode,M117 Starting..,,G21 ;metric values,G90 ;absolute positioning,M82 ;set extruder to absolute mode,;M107 ;start with the fan off,;G28 X0 Y0 ;move X/Y to min endstops,;G28 Z0 ;move Z to min endstops,;G28 X0 Y0 ;move X/Y to min endstops,;G1 Z15.0 F{travel_speed} ;move the platform down 15mm,;G92 E0 ;zero the extruded length,;G1 F200 E6 ;extrude 6 mm of feed stock,;G92 E0 ;zero the extruded length again,G1 F{travel_speed},,; Duplicator 6 / Monoprice Maker Ultimate Start Script V3,M107 ; start with the fan off,G28 ; home,;G29 ; probe bed,G1 Z15 F3600 ; move the platform 15mm down from home,G0 X0 Y0 ; Rapid move X0 Y0,G92 E0 ; zero the extruded length,; perform wipe and prime,G1 X8.0 Z0.0 F3600,G1 X10.0 Z0.2 F3600,G1 X70 Z0.4 E9.0 F1000 ; prime,G1 X100.0 E22 F1000 ; prime,G1 X130 Z0.2 F9000 ; pull away wipe,G1 X140 F9000     ; finish wipe,G1 Z2 F1000 ; lift head before first move,G1 X100 Y100 F5000 ; Move nozzle to center of bed,G92 E0 ; zero extruder again,; Place printing message on LCD screen,M117 YEAH BABY
;   layerChangeGcode,
;   retractionGcode,
;   toolChangeGcode,
;   endingGcode,M117 Finishing up..,,; Duplicator 6 / Monoprice Maker Ultimate Stop Script V2,G92 E0 ; zero the extruded length,;G1 E-1.5 F500 ; retract the filament to release some of the pressure,G1 E-1 F300  ;retract the filament a bit before lifting the nozzle to release some of the pressure,M104 S0 ; turn off heater,M140 S0 ; turn off bed,M106 S0 ; turn off part fan,G91 ; relative positioning,G1 Z3 ; lower build plate a few mm,G90 ; absolute positioning,G1 Z170 F9000 ; lower build plate,G28 X0 Y0 ; move head out of the way,M84 ; disable stepper motors,
;   exportFileFormat,gcode
;   celebration,0
;   celebrationSong,Random Song
;   postProcessing,
;   defaultSpeed,3000
;   outlineUnderspeed,0.65
;   solidInfillUnderspeed,0.7
;   supportUnderspeed,0.7
;   rapidXYspeed,4800
;   rapidZspeed,300
;   minBridgingArea,5
;   bridgingExtraInflation,0
;   bridgingExtrusionMultiplier,1
;   bridgingSpeedMultiplier,0.5
;   useFixedBridgingAngle,0
;   fixedBridgingAngle,0
;   applyBridgingToPerimeters,0
;   filamentDiameters,1.75|1.75|1.75|1.75|1.75|1.75
;   filamentPricesPerKg,20|46|46|46|46|46
;   filamentDensities,1.25|1.25|1.25|1.25|1.25|1.25
;   useMinPrintHeight,0
;   minPrintHeight,0
;   useMaxPrintHeight,0
;   maxPrintHeight,0
;   useDiaphragm,1
;   diaphragmLayerInterval,20
;   robustSlicing,1
;   mergeAllIntoSolid,0
;   onlyRetractWhenCrossingOutline,1
;   retractBetweenLayers,1
;   useRetractionMinTravel,1
;   retractionMinTravel,0.02
;   retractWhileWiping,1
;   onlyWipeOutlines,1
;   avoidCrossingOutline,1
;   maxMovementDetourFactor,3
;   toolChangeRetractionDistance,0.7
;   toolChangeExtraRestartDistance,-0.5
;   toolChangeRetractionSpeed,600
;   externalThinWallType,0
;   internalThinWallType,2
;   thinWallAllowedOverlapPercentage,10
;   singleExtrusionMinLength,1
;   singleExtrusionMinPrintingWidthPercentage,50
;   singleExtrusionMaxPrintingWidthPercentage,200
;   singleExtrusionEndpointExtension,0.2
;   horizontalSizeCompensation,0
G90
M82
M106 S255
G4 P500
M106 S0
M140 S60
M190 S60
M104 S195 T0
M109 S195 T0
M117 Starting..
G21 ;metric values
G90 ;absolute positioning
M82 ;set extruder to absolute mode
;M107 ;start with the fan off
;G28 X0 Y0 ;move X/Y to min endstops
;G28 Z0 ;move Z to min endstops
;G28 X0 Y0 ;move X/Y to min endstops
;G1 Z15.0 F{travel_speed} ;move the platform down 15mm
;G92 E0 ;zero the extruded length
;G1 F200 E6 ;extrude 6 mm of feed stock
;G92 E0 ;zero the extruded length again
G1 F{travel_speed}
; Duplicator 6 / Monoprice Maker Ultimate Start Script V3
M107 ; start with the fan off
G28 ; home
;G29 ; probe bed
G1 Z15 F3600 ; move the platform 15mm down from home
G0 X0 Y0 ; Rapid move X0 Y0
G92 E0 ; zero the extruded length
; perform wipe and prime
G1 X8.0 Z0.0 F3600
G1 X10.0 Z0.2 F3600
G1 X70 Z0.4 E9.0 F1000 ; prime
G1 X100.0 E22 F1000 ; prime
G1 X130 Z0.2 F9000 ; pull away wipe
G1 X140 F9000     ; finish wipe
G1 Z2 F1000 ; lift head before first move
G1 X100 Y100 F5000 ; Move nozzle to center of bed
G92 E0 ; zero extruder again
; Place printing message on LCD screen
M117 YEAH BABY
G92 E0
G1 E-0.6500 F2400
G1 Z0.400 F300
; process PLA Medium
; layer 1, Z = 0.400
T0
; tool H0.400 W0.480
; skirt
G1 X33.535 Y31.219 F4800
G1 E0.0000 F720
G92 E0
G1 X33.800 Y31.109 E0.0206 F900
G1 X166.200 Y31.109 E9.5325
G1 X166.465 Y31.219 E9.5530
G1 X169.010 Y33.765 E9.8117
G1 X169.120 Y34.029 E9.8323
G1 X169.120 Y165.893 E19.3056
G1 X169.010 Y166.158 E19.3262
G1 X166.465 Y168.703 E19.5848
G1 X166.200 Y168.813 E19.6054
G1 X33.800 Y168.813 E29.1173
G1 X33.535 Y168.703 E29.1378
G1 X30.990 Y166.157 E29.3965
G1 X30.880 Y165.893 E29.4171
G1 X30.880 Y34.029 E38.8904
G1 X30.990 Y33.765 E38.9110
G1 X33.394 Y31.360 E39.1552
G1 X33.535 Y31.219 F900
G1 X33.807 Y31.626 F4800
G92 E0
G1 X33.895 Y31.589 E0.0069 F900
G1 X166.105 Y31.589 E9.5050
G1 X166.193 Y31.626 E9.5119
G1 X168.603 Y34.037 E9.7568
G1 X168.640 Y34.125 E9.7637
G1 X168.640 Y165.797 E19.2233
G1 X168.603 Y165.886 E19.2301
G1 X166.193 Y168.296 E19.4751
G1 X166.105 Y168.333 E19.4819
G1 X33.895 Y168.333 E28.9801
G1 X33.807 Y168.296 E28.9869
G1 X31.397 Y165.886 E29.2318
G1 X31.360 Y165.797 E29.2387
G1 X31.360 Y34.125 E38.6983
G1 X31.397 Y34.037 E38.7052
G1 X33.666 Y31.767 E38.9357
G1 X33.807 Y31.626 F900
G92 E0
G1 E-0.6500 F2400
; inner perimeter
G1 X35.835 Y36.065 F4800
G1 X36.073 Y36.065 F4800
G1 X36.320 Y36.549 F4800
G1 E0.0000 F2400
G92 E0
G1 X163.680 Y36.549 E9.1498 F742
G1 X163.680 Y163.373 E18.2610
G1 X36.320 Y163.373 E27.4108
G1 X36.320 Y36.749 E36.5077
G1 X36.320 Y36.549 F742
; outer perimeter
G1 X35.840 Y36.069 F4800
G92 E0
G1 X164.160 Y36.069 E9.2188 F585
G1 X164.160 Y163.853 E18.3990
G1 X35.840 Y163.853 E27.6177
G1 X35.840 Y36.269 E36.7835
G1 X35.840 Y36.069 F585
G1 X37.840 Y36.069 F3000
; solid layer
G1 X163.161 Y36.861 F4800
G92 E0
G1 X163.368 Y37.068 E0.0210 F630
G1 X163.368 Y37.747 E0.0698
G1 X162.482 Y36.861 E0.1597
G1 X161.804 Y36.861 E0.2085
G1 X163.368 Y38.426 E0.3674
G1 X163.368 Y39.105 E0.4162
G1 X161.125 Y36.861 E0.6441
G1 X160.446 Y36.861 E0.6929
G1 X163.368 Y39.783 E0.9898
G1 X163.368 Y40.462 E1.0385
G1 X159.767 Y36.861 E1.4044
G1 X159.088 Y36.861 E1.4531
G1 X163.368 Y41.141 E1.8880
G1 X163.368 Y41.820 E1.9367
G1 X158.410 Y36.861 E2.4405
G1 X157.731 Y36.861 E2.4893
G1 X163.368 Y42.499 E3.0620
G1 X163.368 Y43.178 E3.1108
G1 X157.052 Y36.861 E3.7525
G1 X156.373 Y36.861 E3.8013
G1 X163.368 Y43.856 E4.5119
G1 X163.368 Y44.535 E4.5607
G1 X155.694 Y36.861 E5.3404
G1 X155.015 Y36.861 E5.3891
G1 X163.368 Y45.214 E6.2378
G1 X163.368 Y45.893 E6.2865
G1 X154.337 Y36.861 E7.2041
G1 X153.658 Y36.861 E7.2529
G1 X163.368 Y46.572 E8.2394
G1 X163.368 Y47.250 E8.2882
G1 X152.979 Y36.861 E9.3437
G1 X152.300 Y36.861 E9.3925
G1 X163.368 Y47.929 E10.5170
G1 X163.368 Y48.608 E10.5658
G1 X151.621 Y36.861 E11.7592
G1 X150.942 Y36.861 E11.8080
G1 X163.368 Y49.287 E13.0704
G1 X163.368 Y49.966 E13.1192
G1 X150.264 Y36.861 E14.4506
G1 X149.585 Y36.861 E14.4993
G1 X163.368 Y50.645 E15.8997
G1 X163.368 Y51.323 E15.9485
G1 X148.906 Y36.861 E17.4178
G1 X148.227 Y36.861 E17.4666
G1 X163.368 Y52.002 E19.0049
G1 X163.368 Y52.681 E19.0537
G1 X147.548 Y36.861 E20.6609
G1 X146.870 Y36.861 E20.7097
G1 X163.368 Y53.360 E22.3859
G1 X163.368 Y54.039 E22.4347
G1 X146.191 Y36.861 E24.1799
G1 X145.512 Y36.861 E24.2287
G1 X163.368 Y54.718 E26.0428
G1 X163.368 Y55.396 E26.0916
G1 X144.833 Y36.861 E27.9748
G1 X144.154 Y36.861 E28.0235
G1 X163.368 Y56.075 E29.9756
G1 X163.368 Y56.754 E30.0244
G1 X143.475 Y36.861 E32.0455
G1 X142.797 Y36.861 E32.0943
G1 X163.368 Y57.433 E34.1843
G1 X163.368 Y58.112 E34.2331
G1 X142.118 Y36.861 E36.3921
G1 X141.439 Y36.861 E36.4409
G1 X163.368 Y58.790 E38.6688
G1 X163.368 Y59.469 E38.7176
G1 X140.760 Y36.861 E41.0146
G1 X140.081 Y36.861 E41.0633
G1 X163.368 Y60.148 E43.4292
G1 X163.368 Y60.827 E43.4780
G1 X139.403 Y36.861 E45.9129
G1 X138.724 Y36.861 E45.9617
G1 X163.368 Y61.506 E48.4655
G1 X163.368 Y62.185 E48.5143
G1 X138.045 Y36.861 E51.0871
G1 X137.366 Y36.861 E51.1359
G1 X163.368 Y62.863 E53.7777
G1 X163.368 Y63.542 E53.8264
G1 X136.687 Y36.861 E56.5372
G1 X136.008 Y36.861 E56.5860
G1 X163.368 Y64.221 E59.3657
G1 X163.368 Y64.900 E59.4145
G1 X135.330 Y36.861 E62.2632
G1 X134.651 Y36.861 E62.3119
G1 X163.368 Y65.579 E65.2296
G1 X163.368 Y66.257 E65.2784
G1 X133.972 Y36.861 E68.2650
G1 X133.293 Y36.861 E68.3138
G1 X163.368 Y66.936 E71.3694
G1 X163.368 Y67.615 E71.4181
G1 X132.614 Y36.861 E74.5427
G1 X131.935 Y36.861 E74.5915
G1 X163.368 Y68.294 E77.7850
G1 X163.368 Y68.973 E77.8338
G1 X131.257 Y36.861 E81.0963
G1 X130.578 Y36.861 E81.1451
G1 X163.368 Y69.652 E84.4765
G1 X163.368 Y70.330 E84.5253
G1 X129.899 Y36.861 E87.9258
G1 X129.220 Y36.861 E87.9745
G1 X163.368 Y71.009 E91.4439
G1 X163.368 Y71.688 E91.4927
G1 X128.541 Y36.861 E95.0311
G1 X127.863 Y36.861 E95.0798
G1 X163.368 Y72.367 E98.6872
G1 X163.368 Y73.046 E98.7360
G1 X127.184 Y36.861 E102.4123
G1 X126.505 Y36.861 E102.4610
G1 X163.368 Y73.725 E106.2063
G1 X163.368 Y74.403 E106.2551
G1 X125.826 Y36.861 E110.0694
G1 X125.147 Y36.861 E110.1181
G1 X163.368 Y75.082 E114.0013
G1 X163.368 Y75.761 E114.0501
G1 X124.468 Y36.861 E118.0023
G1 X123.790 Y36.861 E118.0511
G1 X163.368 Y76.440 E122.0722
G1 X163.368 Y77.119 E122.1210
G1 X123.111 Y36.861 E126.2111
G1 X122.432 Y36.861 E126.2599
G1 X163.368 Y77.797 E130.4190
G1 X163.368 Y78.476 E130.4677
G1 X121.753 Y36.861 E134.6958
G1 X121.074 Y36.861 E134.7446
G1 X163.368 Y79.155 E139.0416
G1 X163.368 Y79.834 E139.0904
G1 X120.395 Y36.861 E143.4564
G1 X119.717 Y36.861 E143.5051
G1 X163.368 Y80.513 E147.9401
G1 X163.368 Y81.192 E147.9889
G1 X119.038 Y36.861 E152.4928
G1 X118.359 Y36.861 E152.5416
G1 X163.368 Y81.870 E157.1145
G1 X163.368 Y82.549 E157.1632
G1 X117.680 Y36.861 E161.8051
G1 X117.001 Y36.861 E161.8539
G1 X163.368 Y83.228 E166.5647
G1 X163.368 Y83.907 E166.6135
G1 X116.323 Y36.861 E171.3933
G1 X115.644 Y36.861 E171.4421
G1 X163.368 Y84.586 E176.2908
G1 X163.368 Y85.265 E176.3396
G1 X114.965 Y36.861 E181.2574
G1 X114.286 Y36.861 E181.3061
G1 X163.368 Y85.943 E186.2928
G1 X163.368 Y86.622 E186.3416
G1 X113.607 Y36.861 E191.3973
G1 X112.928 Y36.861 E191.4461
G1 X163.368 Y87.301 E196.5707
G1 X163.368 Y87.980 E196.6195
G1 X112.250 Y36.861 E201.8131
G1 X111.571 Y36.861 E201.8619
G1 X163.368 Y88.659 E207.1244
G1 X163.368 Y89.337 E207.1732
G1 X110.892 Y36.861 E212.5048
G1 X110.213 Y36.861 E212.5535
G1 X163.368 Y90.016 E217.9540
G1 X163.368 Y90.695 E218.0028
G1 X109.534 Y36.861 E223.4723
G1 X108.856 Y36.861 E223.5211
G1 X163.368 Y91.374 E229.0595
G1 X163.368 Y92.053 E229.1083
G1 X108.177 Y36.861 E234.7157
G1 X107.498 Y36.861 E234.7645
G1 X163.368 Y92.732 E240.4409
G1 X163.368 Y93.410 E240.4897
G1 X106.819 Y36.861 E246.2350
G1 X106.140 Y36.861 E246.2838
G1 X163.368 Y94.089 E252.0981
G1 X163.368 Y94.768 E252.1469
G1 X105.461 Y36.861 E258.0302
G1 X104.783 Y36.861 E258.0789
G1 X163.368 Y95.447 E264.0312
G1 X163.368 Y96.126 E264.0800
G1 X104.104 Y36.861 E270.1012
G1 X103.425 Y36.861 E270.1500
G1 X163.368 Y96.805 E276.2402
G1 X163.368 Y97.483 E276.2890
G1 X102.746 Y36.861 E282.4481
G1 X102.067 Y36.861 E282.4969
G1 X163.368 Y98.162 E288.7250
G1 X163.368 Y98.841 E288.7738
G1 X101.388 Y36.861 E295.0709
G1 X100.710 Y36.861 E295.1197
G1 X163.368 Y99.520 E301.4858
G1 X163.368 Y100.199 E301.5345
G1 X100.031 Y36.861 E307.9696
G1 X99.352 Y36.861 E308.0183
G1 X163.368 Y100.877 E314.5223
G1 X163.368 Y101.556 E314.5711
G1 X98.673 Y36.861 E321.1441
G1 X97.994 Y36.861 E321.1929
G1 X163.368 Y102.235 E327.8348
G1 X163.368 Y102.914 E327.8836
G1 X97.316 Y36.861 E334.5945
G1 X96.637 Y36.861 E334.6433
G1 X163.368 Y103.593 E341.4232
G1 X163.368 Y104.272 E341.4719
G1 X95.958 Y36.861 E348.3208
G1 X95.279 Y36.861 E348.3695
G1 X163.368 Y104.950 E355.2874
G1 X163.368 Y105.629 E355.3361
G1 X94.600 Y36.861 E362.3229
G1 X93.921 Y36.861 E362.3717
G1 X163.368 Y106.308 E369.4274
G1 X163.368 Y106.987 E369.4762
G1 X93.243 Y36.861 E376.6009
G1 X92.564 Y36.861 E376.6497
G1 X163.368 Y107.666 E383.8434
G1 X163.368 Y108.344 E383.8922
