; G-Code generated by Simplify3D(R) Version 4.0.1
; Nov 12, 2018 at 3:15:40 AM
; Settings Summary
;   processName,PLA Medium
;   applyToModels,untitled-panel
;   profileName,Wanhao Duplicator 6.2
;   profileVersion,2018-10-06 23:33:11
;   baseProfile,Wanhao Duplicator 6 (modified)
;   printMaterial,PLA
;   printQuality,.Medium
;   printExtruders,
;   extruderName,Primary Extruder
;   extruderToolheadNumber,0
;   extruderDiameter,0.4
;   extruderAutoWidth,1
;   extruderWidth,0.48
;   extrusionMultiplier,0.9
;   extruderUseRetract,1
;   extruderRetractionDistance,0.65
;   extruderExtraRestartDistance,0
;   extruderRetractionZLift,0
;   extruderRetractionSpeed,2400
;   extruderUseCoasting,1
;   extruderCoastingDistance,0.2
;   extruderUseWipe,1
;   extruderWipeDistance,2
;   primaryExtruder,0
;   layerHeight,0.2
;   topSolidLayers,4
;   bottomSolidLayers,4
;   perimeterOutlines,2
;   printPerimetersInsideOut,1
;   startPointOption,2
;   startPointOriginX,0
;   startPointOriginY,0
;   sequentialIslands,1
;   spiralVaseMode,0
;   firstLayerHeightPercentage,200
;   firstLayerWidthPercentage,100
;   firstLayerUnderspeed,0.3
;   useRaft,0
;   raftExtruder,0
;   raftTopLayers,2
;   raftBaseLayers,1
;   raftOffset,3
;   raftSeparationDistance,0.14
;   raftTopInfill,100
;   aboveRaftSpeedMultiplier,0.3
;   useSkirt,1
;   skirtExtruder,0
;   skirtLayers,1
;   skirtOutlines,2
;   skirtOffset,4
;   usePrimePillar,0
;   primePillarExtruder,999
;   primePillarWidth,12
;   primePillarLocation,7
;   primePillarSpeedMultiplier,1
;   useOozeShield,0
;   oozeShieldExtruder,999
;   oozeShieldOffset,2
;   oozeShieldOutlines,1
;   oozeShieldSidewallShape,1
;   oozeShieldSidewallAngle,30
;   oozeShieldSpeedMultiplier,1
;   infillExtruder,0
;   internalInfillPattern,Rectilinear
;   externalInfillPattern,Rectilinear
;   infillPercentage,20
;   outlineOverlapPercentage,35
;   infillExtrusionWidthPercentage,125
;   minInfillLength,3
;   infillLayerInterval,2
;   internalInfillAngles,45,-45
;   overlapInternalInfillAngles,0
;   externalInfillAngles,45,-45
;   generateSupport,1
;   supportExtruder,0
;   supportInfillPercentage,40
;   supportExtraInflation,0
;   supportBaseLayers,0
;   denseSupportExtruder,0
;   denseSupportLayers,0
;   denseSupportInfillPercentage,70
;   supportLayerInterval,2
;   supportHorizontalPartOffset,0.3
;   supportUpperSeparationLayers,1
;   supportLowerSeparationLayers,1
;   supportType,0
;   supportGridSpacing,4
;   maxOverhangAngle,45
;   supportAngles,0
;   temperatureName,Primary Extruder,Heated Build Platform
;   temperatureNumber,0,1
;   temperatureSetpointCount,1,1
;   temperatureSetpointLayers,1,1
;   temperatureSetpointTemperatures,195,60
;   temperatureStabilizeAtStartup,1,1
;   temperatureHeatedBed,0,1
;   temperatureRelayBetweenLayers,0,0
;   temperatureRelayBetweenLoops,0,0
;   fanLayers,1,2,3
;   fanSpeeds,0,60,100
;   blipFanToFullPower,1
;   adjustSpeedForCooling,1
;   minSpeedLayerTime,15
;   minCoolingSpeedSlowdown,20
;   increaseFanForCooling,1
;   minFanLayerTime,10
;   maxCoolingFanSpeed,30
;   increaseFanForBridging,1
;   bridgingFanSpeed,45
;   use5D,1
;   relativeEdistances,0
;   allowEaxisZeroing,1
;   independentExtruderAxes,0
;   includeM10123,0
;   stickySupport,1
;   applyToolheadOffsets,0
;   gcodeXoffset,0
;   gcodeYoffset,0
;   gcodeZoffset,0
;   overrideMachineDefinition,1
;   machineTypeOverride,0
;   strokeXoverride,200
;   strokeYoverride,200
;   strokeZoverride,175
;   originOffsetXoverride,0
;   originOffsetYoverride,0
;   originOffsetZoverride,0
;   homeXdirOverride,-1
;   homeYdirOverride,-1
;   homeZdirOverride,-1
;   flipXoverride,1
;   flipYoverride,-1
;   flipZoverride,1
;   toolheadOffsets,0,0|0,0|0,0|0,0|0,0|0,0
;   overrideFirmwareConfiguration,1
;   firmwareTypeOverride,RepRap (Marlin/Repetier/Sprinter)
;   GPXconfigOverride,r2
;   baudRateOverride,250000
;   overridePrinterModels,1
;   printerModelsOverride
;   startingGcode,M117 Starting..,,G21 ;metric values,G90 ;absolute positioning,M82 ;set extruder to absolute mode,;M107 ;start with the fan off,;G28 X0 Y0 ;move X/Y to min endstops,;G28 Z0 ;move Z to min endstops,;G28 X0 Y0 ;move X/Y to min endstops,;G1 Z15.0 F{travel_speed} ;move the platform down 15mm,;G92 E0 ;zero the extruded length,;G1 F200 E6 ;extrude 6 mm of feed stock,;G92 E0 ;zero the extruded length again,G1 F{travel_speed},,; Duplicator 6 / Monoprice Maker Ultimate Start Script V3,M107 ; start with the fan off,G28 ; home,;G29 ; probe bed,G1 Z15 F3600 ; move the platform 15mm down from home,G0 X0 Y0 ; Rapid move X0 Y0,G92 E0 ; zero the extruded length,; perform wipe and prime,G1 X8.0 Z0.0 F3600,G1 X10.0 Z0.2 F3600,G1 X70 Z0.4 E9.0 F1000 ; prime,G1 X100.0 E22 F1000 ; prime,G1 X130 Z0.2 F9000 ; pull away wipe,G1 X140 F9000     ; finish wipe,G1 Z2 F1000 ; lift head before first move,G1 X100 Y100 F5000 ; Move nozzle to center of bed,G92 E0 ; zero extruder again,; Place printing message on LCD screen,M117 YEAH BABY
;   layerChangeGcode,
;   retractionGcode,
;   toolChangeGcode,
;   endingGcode,M117 Finishing up..,,; Duplicator 6 / Monoprice Maker Ultimate Stop Script V2,G92 E0 ; zero the extruded length,;G1 E-1.5 F500 ; retract the filament to release some of the pressure,G1 E-1 F300  ;retract the filament a bit before lifting the nozzle to release some of the pressure,M104 S0 ; turn off heater,M140 S0 ; turn off bed,M106 S0 ; turn off part fan,G91 ; relative positioning,G1 Z3 ; lower build plate a few mm,G90 ; absolute positioning,G1 Z170 F9000 ; lower build plate,G28 X0 Y0 ; move head out of the way,M84 ; disable stepper motors,
;   exportFileFormat,gcode
;   celebration,0
;   celebrationSong,Random Song
;   postProcessing,
;   defaultSpeed,3000
;   outlineUnderspeed,0.65
;   solidInfillUnderspeed,0.7
;   supportUnderspeed,0.7
;   rapidXYspeed,4800
;   rapidZspeed,300
;   minBridgingArea,5
;   bridgingExtraInflation,0
;   bridgingExtrusionMultiplier,1
;   bridgingSpeedMultiplier,0.5
;   useFixedBridgingAngle,0
;   fixedBridgingAngle,0
;   applyBridgingToPerimeters,0
;   filamentDiameters,1.75|1.75|1.75|1.75|1.75|1.75
;   filamentPricesPerKg,20|46|46|46|46|46
;   filamentDensities,1.25|1.25|1.25|1.25|1.25|1.25
;   useMinPrintHeight,0
;   minPrintHeight,0
;   useMaxPrintHeight,0
;   maxPrintHeight,0
;   useDiaphragm,1
;   diaphragmLayerInterval,20
;   robustSlicing,1
;   mergeAllIntoSolid,0
;   onlyRetractWhenCrossingOutline,1
;   retractBetweenLayers,1
;   useRetractionMinTravel,1
;   retractionMinTravel,0.02
;   retractWhileWiping,1
;   onlyWipeOutlines,1
;   avoidCrossingOutline,1
;   maxMovementDetourFactor,3
;   toolChangeRetractionDistance,0.7
;   toolChangeExtraRestartDistance,-0.5
;   toolChangeRetractionSpeed,600
;   externalThinWallType,0
;   internalThinWallType,2
;   thinWallAllowedOverlapPercentage,10
;   singleExtrusionMinLength,1
;   singleExtrusionMinPrintingWidthPercentage,50
;   singleExtrusionMaxPrintingWidthPercentage,200
;   singleExtrusionEndpointExtension,0.2
;   horizontalSizeCompensation,0
G90
M82
M106 S255
G4 P500
M106 S0
M140 S60
M190 S60
M104 S195 T0
M109 S195 T0
M117 Starting..
G21 ;metric values
G90 ;absolute positioning
M82 ;set extruder to absolute mode
;M107 ;start with the fan off
;G28 X0 Y0 ;move X/Y to min endstops
;G28 Z0 ;move Z to min endstops
;G28 X0 Y0 ;move X/Y to min endstops
;G1 Z15.0 F{travel_speed} ;move the platform down 15mm
;G92 E0 ;zero the extruded length
;G1 F200 E6 ;extrude 6 mm of feed stock
;G92 E0 ;zero the extruded length again
G1 F{travel_speed}
; Duplicator 6 / Monoprice Maker Ultimate Start Script V3
M107 ; start with the fan off
G28 ; home
;G29 ; probe bed
G1 Z15 F3600 ; move the platform 15mm down from home
G0 X0 Y0 ; Rapid move X0 Y0
G92 E0 ; zero the extruded length
; perform wipe and prime
G1 X8.0 Z0.0 F3600
G1 X10.0 Z0.2 F3600
G1 X70 Z0.4 E9.0 F1000 ; prime
G1 X100.0 E22 F1000 ; prime
G1 X130 Z0.2 F9000 ; pull away wipe
G1 X140 F9000     ; finish wipe
G1 Z2 F1000 ; lift head before first move
G1 X100 Y100 F5000 ; Move nozzle to center of bed
G92 E0 ; zero extruder again
; Place printing message on LCD screen
M117 YEAH BABY
G92 E0
G1 E-0.6500 F2400
G1 Z0.400 F300
; process PLA Medium
; layer 1, Z = 0.400
T0
; tool H0.400 W0.480
; skirt
G1 X87.680 Y33.800 F4800
G1 E0.0000 F720
G92 E0
G1 X87.790 Y33.535 E0.0206 F900
G1 X90.335 Y30.990 E0.2792
G1 X90.600 Y30.880 E0.2998
G1 X109.400 Y30.880 E1.6504
G1 X109.665 Y30.990 E1.6710
G1 X112.210 Y33.535 E1.9297
G1 X112.320 Y33.800 E1.9502
G1 X112.320 Y166.200 E11.4621
G1 X112.210 Y166.465 E11.4827
G1 X109.665 Y169.010 E11.7413
G1 X109.400 Y169.120 E11.7619
G1 X90.600 Y169.120 E13.1125
G1 X90.335 Y169.010 E13.1331
G1 X87.790 Y166.465 E13.3918
G1 X87.680 Y166.200 E13.4123
G1 X87.680 Y34.000 E22.9099
G1 X87.680 Y33.800 F900
G1 X88.160 Y33.895 F4800
G92 E0
G1 X88.197 Y33.807 E0.0069 F900
G1 X90.607 Y31.397 E0.2518
G1 X90.695 Y31.360 E0.2586
G1 X109.305 Y31.360 E1.5956
G1 X109.393 Y31.397 E1.6024
G1 X111.803 Y33.807 E1.8473
G1 X111.840 Y33.895 E1.8542
G1 X111.840 Y166.105 E11.3524
G1 X111.803 Y166.193 E11.3592
G1 X109.393 Y168.603 E11.6041
G1 X109.305 Y168.640 E11.6110
G1 X90.695 Y168.640 E12.9479
G1 X90.607 Y168.603 E12.9548
G1 X88.197 Y166.193 E13.1997
G1 X88.160 Y166.105 E13.2066
G1 X88.160 Y34.095 E22.6904
G1 X88.160 Y33.895 F900
G92 E0
G1 E-0.6500 F2400
; inner perimeter
G1 X92.635 Y35.835 F4800
G1 X92.635 Y36.083 F4800
G1 X93.120 Y36.320 F4800
G1 E0.0000 F2400
G92 E0
G1 X106.880 Y36.320 E0.9885 F742
G1 X106.880 Y163.680 E10.1383
G1 X93.120 Y163.680 E11.1269
G1 X93.120 Y36.520 E20.2623
G1 X93.120 Y36.320 F742
; outer perimeter
G1 X92.640 Y35.840 F4800
G92 E0
G1 X107.360 Y35.840 E1.0575 F585
G1 X107.360 Y164.160 E10.2763
G1 X92.640 Y164.160 E11.3338
G1 X92.640 Y36.040 E20.5382
G1 X92.640 Y35.840 F585
G1 X94.640 Y35.840 F3000
; solid layer
G1 X106.551 Y36.632 F4800
G92 E0
G1 X106.568 Y36.649 E0.0018 F630
G1 X106.568 Y37.328 E0.0505
G1 X105.872 Y36.632 E0.1212
G1 X105.193 Y36.632 E0.1700
G1 X106.568 Y38.007 E0.3097
G1 X106.568 Y38.686 E0.3585
G1 X104.514 Y36.632 E0.5671
G1 X103.835 Y36.632 E0.6159
G1 X106.568 Y39.365 E0.8935
G1 X106.568 Y40.043 E0.9423
G1 X103.157 Y36.632 E1.2889
G1 X102.478 Y36.632 E1.3377
G1 X106.568 Y40.722 E1.7532
G1 X106.568 Y41.401 E1.8020
G1 X101.799 Y36.632 E2.2865
G1 X101.120 Y36.632 E2.3353
G1 X106.568 Y42.080 E2.8888
G1 X106.568 Y42.759 E2.9376
G1 X100.441 Y36.632 E3.5600
G1 X99.762 Y36.632 E3.6088
G1 X106.568 Y43.437 E4.3003
G1 X106.568 Y44.116 E4.3490
G1 X99.084 Y36.632 E5.1094
G1 X98.405 Y36.632 E5.1582
G1 X106.568 Y44.795 E5.9876
G1 X106.568 Y45.474 E6.0363
G1 X97.726 Y36.632 E6.9347
G1 X97.047 Y36.632 E6.9834
G1 X106.568 Y46.153 E7.9508
G1 X106.568 Y46.832 E7.9995
G1 X96.368 Y36.632 E9.0358
G1 X95.690 Y36.632 E9.0846
G1 X106.568 Y47.510 E10.1898
G1 X106.568 Y48.189 E10.2386
G1 X95.011 Y36.632 E11.4128
G1 X94.332 Y36.632 E11.4616
G1 X106.568 Y48.868 E12.7048
G1 X106.568 Y49.547 E12.7535
G1 X93.653 Y36.632 E14.0657
G1 X93.432 Y36.632 E14.0816
G1 X93.432 Y37.090 E14.1144
G1 X106.568 Y50.226 E15.4491
G1 X106.568 Y50.905 E15.4978
G1 X93.432 Y37.769 E16.8324
G1 X93.432 Y38.447 E16.8812
G1 X106.568 Y51.583 E18.2158
G1 X106.568 Y52.262 E18.2646
G1 X93.432 Y39.126 E19.5992
G1 X93.432 Y39.805 E19.6480
G1 X106.568 Y52.941 E20.9826
G1 X106.568 Y53.620 E21.0314
G1 X93.432 Y40.484 E22.3660
G1 X93.432 Y41.163 E22.4147
G1 X106.568 Y54.299 E23.7493
G1 X106.568 Y54.977 E23.7981
G1 X93.432 Y41.841 E25.1327
G1 X93.432 Y42.520 E25.1815
G1 X106.568 Y55.656 E26.5161
G1 X106.568 Y56.335 E26.5649
G1 X93.432 Y43.199 E27.8995
G1 X93.432 Y43.878 E27.9483
G1 X106.568 Y57.014 E29.2829
G1 X106.568 Y57.693 E29.3316
G1 X93.432 Y44.557 E30.6663
G1 X93.432 Y45.236 E30.7150
G1 X106.568 Y58.372 E32.0496
G1 X106.568 Y59.050 E32.0984
G1 X93.432 Y45.914 E33.4330
G1 X93.432 Y46.593 E33.4818
G1 X106.568 Y59.729 E34.8164
G1 X106.568 Y60.408 E34.8652
G1 X93.432 Y47.272 E36.1998
G1 X93.432 Y47.951 E36.2486
G1 X106.568 Y61.087 E37.5832
G1 X106.568 Y61.766 E37.6319
G1 X93.432 Y48.630 E38.9665
G1 X93.432 Y49.309 E39.0153
G1 X106.568 Y62.445 E40.3499
G1 X106.568 Y63.123 E40.3987
G1 X93.432 Y49.987 E41.7333
G1 X93.432 Y50.666 E41.7821
G1 X106.568 Y63.802 E43.1167
G1 X106.568 Y64.481 E43.1655
G1 X93.432 Y51.345 E44.5001
G1 X93.432 Y52.024 E44.5488
G1 X106.568 Y65.160 E45.8835
G1 X106.568 Y65.839 E45.9322
G1 X93.432 Y52.703 E47.2668
G1 X93.432 Y53.381 E47.3156
G1 X106.568 Y66.517 E48.6502
G1 X106.568 Y67.196 E48.6990
G1 X93.432 Y54.060 E50.0336
G1 X93.432 Y54.739 E50.0824
G1 X106.568 Y67.875 E51.4170
G1 X106.568 Y68.554 E51.4657
G1 X93.432 Y55.418 E52.8004
G1 X93.432 Y56.097 E52.8491
G1 X106.568 Y69.233 E54.1837
G1 X106.568 Y69.912 E54.2325
G1 X93.432 Y56.776 E55.5671
G1 X93.432 Y57.454 E55.6159
G1 X106.568 Y70.590 E56.9505
G1 X106.568 Y71.269 E56.9993
G1 X93.432 Y58.133 E58.3339
G1 X93.432 Y58.812 E58.3827
G1 X106.568 Y71.948 E59.7173
G1 X106.568 Y72.627 E59.7660
G1 X93.432 Y59.491 E61.1007
G1 X93.432 Y60.170 E61.1494
G1 X106.568 Y73.306 E62.4840
G1 X106.568 Y73.984 E62.5328
G1 X93.432 Y60.849 E63.8674
G1 X93.432 Y61.527 E63.9162
G1 X106.568 Y74.663 E65.2508
G1 X106.568 Y75.342 E65.2996
G1 X93.432 Y62.206 E66.6342
G1 X93.432 Y62.885 E66.6829
G1 X106.568 Y76.021 E68.0176
G1 X106.568 Y76.700 E68.0663
G1 X93.432 Y63.564 E69.4009
G1 X93.432 Y64.243 E69.4497
G1 X106.568 Y77.379 E70.7843
G1 X106.568 Y78.057 E70.8331
G1 X93.432 Y64.921 E72.1677
G1 X93.432 Y65.600 E72.2165
G1 X106.568 Y78.736 E73.5511
G1 X106.568 Y79.415 E73.5999
G1 X93.432 Y66.279 E74.9345
G1 X93.432 Y66.958 E74.9832
G1 X106.568 Y80.094 E76.3178
G1 X106.568 Y80.773 E76.3666
G1 X93.432 Y67.637 E77.7012
G1 X93.432 Y68.316 E77.7500
G1 X106.568 Y81.452 E79.0846
G1 X106.568 Y82.130 E79.1334
G1 X93.432 Y68.994 E80.4680
G1 X93.432 Y69.673 E80.5168
G1 X106.568 Y82.809 E81.8514
G1 X106.568 Y83.488 E81.9001
G1 X93.432 Y70.352 E83.2348
G1 X93.432 Y71.031 E83.2835
G1 X106.568 Y84.167 E84.6181
G1 X106.568 Y84.846 E84.6669
G1 X93.432 Y71.710 E86.0015
G1 X93.432 Y72.388 E86.0503
G1 X106.568 Y85.524 E87.3849
G1 X106.568 Y86.203 E87.4337
G1 X93.432 Y73.067 E88.7683
G1 X93.432 Y73.746 E88.8171
G1 X106.568 Y86.882 E90.1517
G1 X106.568 Y87.561 E90.2004
G1 X93.432 Y74.425 E91.5350
G1 X93.432 Y75.104 E91.5838
G1 X106.568 Y88.240 E92.9184
G1 X106.568 Y88.919 E92.9672
G1 X93.432 Y75.783 E94.3018
G1 X93.432 Y76.461 E94.3506
G1 X106.568 Y89.597 E95.6852
G1 X106.568 Y90.276 E95.7340
G1 X93.432 Y77.140 E97.0686
G1 X93.432 Y77.819 E97.1173
G1 X106.568 Y90.955 E98.4520
G1 X106.568 Y91.634 E98.5007
G1 X93.432 Y78.498 E99.8353
G1 X93.432 Y79.177 E99.8841
G1 X106.568 Y92.313 E101.2187
G1 X106.568 Y92.992 E101.2675
G1 X93.432 Y79.856 E102.6021
G1 X93.432 Y80.534 E102.6509
G1 X106.568 Y93.670 E103.9855
G1 X106.568 Y94.349 E104.0342
G1 X93.432 Y81.213 E105.3689
G1 X93.432 Y81.892 E105.4176
G1 X106.568 Y95.028 E106.7522
G1 X106.568 Y95.707 E106.8010
G1 X93.432 Y82.571 E108.1356
G1 X93.432 Y83.250 E108.1844
G1 X106.568 Y96.386 E109.5190
G1 X106.568 Y97.064 E109.5678
G1 X93.432 Y83.928 E110.9024
G1 X93.432 Y84.607 E110.9512
G1 X106.568 Y97.743 E112.2858
G1 X106.568 Y98.422 E112.3345
G1 X93.432 Y85.286 E113.6692
G1 X93.432 Y85.965 E113.7179
G1 X106.568 Y99.101 E115.0525
G1 X106.568 Y99.780 E115.1013
G1 X93.432 Y86.644 E116.4359
G1 X93.432 Y87.323 E116.4847
G1 X106.568 Y100.459 E117.8193
G1 X106.568 Y101.137 E117.8681
G1 X93.432 Y88.001 E119.2027
G1 X93.432 Y88.680 E119.2514
G1 X106.568 Y101.816 E120.5861
G1 X106.568 Y102.495 E120.6348
G1 X93.432 Y89.359 E121.9694
G1 X93.432 Y90.038 E122.0182
G1 X106.568 Y103.174 E123.3528
G1 X106.568 Y103.853 E123.4016
G1 X93.432 Y90.717 E124.7362
G1 X93.432 Y91.396 E124.7850
G1 X106.568 Y104.532 E126.1196
G1 X106.568 Y105.210 E126.1684
G1 X93.432 Y92.074 E127.5030
G1 X93.432 Y92.753 E127.5517
G1 X106.568 Y105.889 E128.8863
G1 X106.568 Y106.568 E128.9351
G1 X93.432 Y93.432 E130.2697
G1 X93.432 Y94.111 E130.3185
G1 X106.568 Y107.247 E131.6531
G1 X106.568 Y107.926 E131.7019
G1 X93.432 Y94.790 E133.0365
G1 X93.432 Y95.468 E133.0853
G1 X106.568 Y108.604 E134.4199
G1 X106.568 Y109.283 E134.4686
