; G-Code generated by Simplify3D(R) Version 4.0.1
; Nov 11, 2018 at 2:03:39 AM
; Settings Summary
;   processName,PLA Medium
;   applyToModels,untitled-Cube_009
;   profileName,Wanhao Duplicator 6.2
;   profileVersion,2018-10-06 23:33:11
;   baseProfile,Wanhao Duplicator 6 (modified)
;   printMaterial,PLA
;   printQuality,.Medium
;   printExtruders,
;   extruderName,Primary Extruder
;   extruderToolheadNumber,0
;   extruderDiameter,0.4
;   extruderAutoWidth,1
;   extruderWidth,0.48
;   extrusionMultiplier,0.9
;   extruderUseRetract,1
;   extruderRetractionDistance,0.65
;   extruderExtraRestartDistance,0
;   extruderRetractionZLift,0
;   extruderRetractionSpeed,2400
;   extruderUseCoasting,1
;   extruderCoastingDistance,0.2
;   extruderUseWipe,1
;   extruderWipeDistance,2
;   primaryExtruder,0
;   layerHeight,0.2
;   topSolidLayers,4
;   bottomSolidLayers,4
;   perimeterOutlines,2
;   printPerimetersInsideOut,1
;   startPointOption,2
;   startPointOriginX,0
;   startPointOriginY,0
;   sequentialIslands,1
;   spiralVaseMode,0
;   firstLayerHeightPercentage,200
;   firstLayerWidthPercentage,100
;   firstLayerUnderspeed,0.3
;   useRaft,0
;   raftExtruder,0
;   raftTopLayers,2
;   raftBaseLayers,1
;   raftOffset,3
;   raftSeparationDistance,0.14
;   raftTopInfill,100
;   aboveRaftSpeedMultiplier,0.3
;   useSkirt,1
;   skirtExtruder,0
;   skirtLayers,1
;   skirtOutlines,2
;   skirtOffset,4
;   usePrimePillar,0
;   primePillarExtruder,999
;   primePillarWidth,12
;   primePillarLocation,7
;   primePillarSpeedMultiplier,1
;   useOozeShield,0
;   oozeShieldExtruder,999
;   oozeShieldOffset,2
;   oozeShieldOutlines,1
;   oozeShieldSidewallShape,1
;   oozeShieldSidewallAngle,30
;   oozeShieldSpeedMultiplier,1
;   infillExtruder,0
;   internalInfillPattern,Rectilinear
;   externalInfillPattern,Rectilinear
;   infillPercentage,20
;   outlineOverlapPercentage,35
;   infillExtrusionWidthPercentage,125
;   minInfillLength,3
;   infillLayerInterval,2
;   internalInfillAngles,45,-45
;   overlapInternalInfillAngles,0
;   externalInfillAngles,45,-45
;   generateSupport,1
;   supportExtruder,0
;   supportInfillPercentage,40
;   supportExtraInflation,0
;   supportBaseLayers,0
;   denseSupportExtruder,0
;   denseSupportLayers,0
;   denseSupportInfillPercentage,70
;   supportLayerInterval,2
;   supportHorizontalPartOffset,0.3
;   supportUpperSeparationLayers,1
;   supportLowerSeparationLayers,1
;   supportType,0
;   supportGridSpacing,4
;   maxOverhangAngle,45
;   supportAngles,0
;   temperatureName,Primary Extruder,Heated Build Platform
;   temperatureNumber,0,1
;   temperatureSetpointCount,1,1
;   temperatureSetpointLayers,1,1
;   temperatureSetpointTemperatures,195,60
;   temperatureStabilizeAtStartup,1,1
;   temperatureHeatedBed,0,1
;   temperatureRelayBetweenLayers,0,0
;   temperatureRelayBetweenLoops,0,0
;   fanLayers,1,2,3
;   fanSpeeds,0,60,100
;   blipFanToFullPower,1
;   adjustSpeedForCooling,1
;   minSpeedLayerTime,15
;   minCoolingSpeedSlowdown,20
;   increaseFanForCooling,1
;   minFanLayerTime,10
;   maxCoolingFanSpeed,30
;   increaseFanForBridging,1
;   bridgingFanSpeed,45
;   use5D,1
;   relativeEdistances,0
;   allowEaxisZeroing,1
;   independentExtruderAxes,0
;   includeM10123,0
;   stickySupport,1
;   applyToolheadOffsets,0
;   gcodeXoffset,0
;   gcodeYoffset,0
;   gcodeZoffset,0
;   overrideMachineDefinition,1
;   machineTypeOverride,0
;   strokeXoverride,200
;   strokeYoverride,200
;   strokeZoverride,175
;   originOffsetXoverride,0
;   originOffsetYoverride,0
;   originOffsetZoverride,0
;   homeXdirOverride,-1
;   homeYdirOverride,-1
;   homeZdirOverride,-1
;   flipXoverride,1
;   flipYoverride,-1
;   flipZoverride,1
;   toolheadOffsets,0,0|0,0|0,0|0,0|0,0|0,0
;   overrideFirmwareConfiguration,1
;   firmwareTypeOverride,RepRap (Marlin/Repetier/Sprinter)
;   GPXconfigOverride,r2
;   baudRateOverride,250000
;   overridePrinterModels,1
;   printerModelsOverride
;   startingGcode,M117 Starting..,,G21 ;metric values,G90 ;absolute positioning,M82 ;set extruder to absolute mode,;M107 ;start with the fan off,;G28 X0 Y0 ;move X/Y to min endstops,;G28 Z0 ;move Z to min endstops,;G28 X0 Y0 ;move X/Y to min endstops,;G1 Z15.0 F{travel_speed} ;move the platform down 15mm,;G92 E0 ;zero the extruded length,;G1 F200 E6 ;extrude 6 mm of feed stock,;G92 E0 ;zero the extruded length again,G1 F{travel_speed},,; Duplicator 6 / Monoprice Maker Ultimate Start Script V3,M107 ; start with the fan off,G28 ; home,;G29 ; probe bed,G1 Z15 F3600 ; move the platform 15mm down from home,G0 X0 Y0 ; Rapid move X0 Y0,G92 E0 ; zero the extruded length,; perform wipe and prime,G1 X8.0 Z0.0 F3600,G1 X10.0 Z0.2 F3600,G1 X70 Z0.4 E9.0 F1000 ; prime,G1 X100.0 E22 F1000 ; prime,G1 X130 Z0.2 F9000 ; pull away wipe,G1 X140 F9000     ; finish wipe,G1 Z2 F1000 ; lift head before first move,G1 X100 Y100 F5000 ; Move nozzle to center of bed,G92 E0 ; zero extruder again,; Place printing message on LCD screen,M117 YEAH BABY
;   layerChangeGcode,
;   retractionGcode,
;   toolChangeGcode,
;   endingGcode,M117 Finishing up..,,; Duplicator 6 / Monoprice Maker Ultimate Stop Script V2,G92 E0 ; zero the extruded length,;G1 E-1.5 F500 ; retract the filament to release some of the pressure,G1 E-1 F300  ;retract the filament a bit before lifting the nozzle to release some of the pressure,M104 S0 ; turn off heater,M140 S0 ; turn off bed,M106 S0 ; turn off part fan,G91 ; relative positioning,G1 Z3 ; lower build plate a few mm,G90 ; absolute positioning,G1 Z170 F9000 ; lower build plate,G28 X0 Y0 ; move head out of the way,M84 ; disable stepper motors,
;   exportFileFormat,gcode
;   celebration,0
;   celebrationSong,Random Song
;   postProcessing,
;   defaultSpeed,3000
;   outlineUnderspeed,0.65
;   solidInfillUnderspeed,0.7
;   supportUnderspeed,0.7
;   rapidXYspeed,4800
;   rapidZspeed,300
;   minBridgingArea,5
;   bridgingExtraInflation,0
;   bridgingExtrusionMultiplier,1
;   bridgingSpeedMultiplier,0.5
;   useFixedBridgingAngle,0
;   fixedBridgingAngle,0
;   applyBridgingToPerimeters,0
;   filamentDiameters,1.75|1.75|1.75|1.75|1.75|1.75
;   filamentPricesPerKg,20|46|46|46|46|46
;   filamentDensities,1.25|1.25|1.25|1.25|1.25|1.25
;   useMinPrintHeight,0
;   minPrintHeight,0
;   useMaxPrintHeight,0
;   maxPrintHeight,0
;   useDiaphragm,1
;   diaphragmLayerInterval,20
;   robustSlicing,1
;   mergeAllIntoSolid,0
;   onlyRetractWhenCrossingOutline,1
;   retractBetweenLayers,1
;   useRetractionMinTravel,1
;   retractionMinTravel,0.02
;   retractWhileWiping,1
;   onlyWipeOutlines,1
;   avoidCrossingOutline,1
;   maxMovementDetourFactor,3
;   toolChangeRetractionDistance,0.7
;   toolChangeExtraRestartDistance,-0.5
;   toolChangeRetractionSpeed,600
;   externalThinWallType,0
;   internalThinWallType,2
;   thinWallAllowedOverlapPercentage,10
;   singleExtrusionMinLength,1
;   singleExtrusionMinPrintingWidthPercentage,50
;   singleExtrusionMaxPrintingWidthPercentage,200
;   singleExtrusionEndpointExtension,0.2
;   horizontalSizeCompensation,0
G90
M82
M106 S255
G4 P500
M106 S0
M140 S60
M190 S60
M104 S195 T0
M109 S195 T0
M117 Starting..
G21 ;metric values
G90 ;absolute positioning
M82 ;set extruder to absolute mode
;M107 ;start with the fan off
;G28 X0 Y0 ;move X/Y to min endstops
;G28 Z0 ;move Z to min endstops
;G28 X0 Y0 ;move X/Y to min endstops
;G1 Z15.0 F{travel_speed} ;move the platform down 15mm
;G92 E0 ;zero the extruded length
;G1 F200 E6 ;extrude 6 mm of feed stock
;G92 E0 ;zero the extruded length again
G1 F{travel_speed}
; Duplicator 6 / Monoprice Maker Ultimate Start Script V3
M107 ; start with the fan off
G28 ; home
;G29 ; probe bed
G1 Z15 F3600 ; move the platform 15mm down from home
G0 X0 Y0 ; Rapid move X0 Y0
G92 E0 ; zero the extruded length
; perform wipe and prime
G1 X8.0 Z0.0 F3600
G1 X10.0 Z0.2 F3600
G1 X70 Z0.4 E9.0 F1000 ; prime
G1 X100.0 E22 F1000 ; prime
G1 X130 Z0.2 F9000 ; pull away wipe
G1 X140 F9000     ; finish wipe
G1 Z2 F1000 ; lift head before first move
G1 X100 Y100 F5000 ; Move nozzle to center of bed
G92 E0 ; zero extruder again
; Place printing message on LCD screen
M117 YEAH BABY
G92 E0
G1 E-0.6500 F2400
G1 Z0.400 F300
; process PLA Medium
; layer 1, Z = 0.400
T0
; tool H0.400 W0.480
; skirt
G1 X33.535 Y31.258 F4800
G1 E0.0000 F720
G92 E0
G1 X33.800 Y31.148 E0.0206 F900
G1 X166.200 Y31.148 E9.5325
G1 X166.465 Y31.258 E9.5530
G1 X169.010 Y33.804 E9.8117
G1 X169.120 Y34.068 E9.8323
G1 X169.120 Y165.932 E19.3056
G1 X169.010 Y166.196 E19.3261
G1 X166.465 Y168.742 E19.5848
G1 X166.200 Y168.852 E19.6054
G1 X33.800 Y168.852 E29.1172
G1 X33.535 Y168.742 E29.1378
G1 X30.990 Y166.196 E29.3965
G1 X30.880 Y165.932 E29.4170
G1 X30.880 Y34.068 E38.8904
G1 X30.990 Y33.804 E38.9109
G1 X33.394 Y31.399 E39.1552
G1 X33.535 Y31.258 F900
G1 X33.807 Y31.665 F4800
G92 E0
G1 X33.895 Y31.628 E0.0069 F900
G1 X166.105 Y31.628 E9.5050
G1 X166.193 Y31.665 E9.5119
G1 X168.603 Y34.076 E9.7568
G1 X168.640 Y34.164 E9.7637
G1 X168.640 Y165.836 E19.2233
G1 X168.603 Y165.924 E19.2301
G1 X166.193 Y168.335 E19.4750
G1 X166.105 Y168.372 E19.4819
G1 X33.895 Y168.372 E28.9801
G1 X33.807 Y168.335 E28.9869
G1 X31.397 Y165.924 E29.2318
G1 X31.360 Y165.836 E29.2387
G1 X31.360 Y34.164 E38.6983
G1 X31.397 Y34.076 E38.7052
G1 X33.666 Y31.806 E38.9357
G1 X33.807 Y31.665 F900
G92 E0
G1 E-0.6500 F2400
; inner perimeter
G1 X35.835 Y36.104 F4800
G1 X36.073 Y36.104 F4800
G1 X36.320 Y36.588 F4800
G1 E0.0000 F2400
G92 E0
G1 X163.680 Y36.588 E9.1498 F742
G1 X163.680 Y163.412 E18.2610
G1 X36.320 Y163.412 E27.4108
G1 X36.320 Y36.788 E36.5077
G1 X36.320 Y36.588 F742
; outer perimeter
G1 X35.840 Y36.108 F4800
G92 E0
G1 X164.160 Y36.108 E9.2188 F585
G1 X164.160 Y163.892 E18.3989
G1 X35.840 Y163.892 E27.6177
G1 X35.840 Y36.308 E36.7835
G1 X35.840 Y36.108 F585
G1 X37.840 Y36.108 F3000
; solid layer
G1 X163.161 Y36.900 F4800
G92 E0
G1 X163.368 Y37.107 E0.0210 F630
G1 X163.368 Y37.786 E0.0698
G1 X162.483 Y36.900 E0.1597
G1 X161.804 Y36.900 E0.2085
G1 X163.368 Y38.465 E0.3674
G1 X163.368 Y39.143 E0.4162
G1 X161.125 Y36.900 E0.6441
G1 X160.446 Y36.900 E0.6929
G1 X163.368 Y39.822 E0.9897
G1 X163.368 Y40.501 E1.0385
G1 X159.767 Y36.900 E1.4043
G1 X159.088 Y36.900 E1.4531
G1 X163.368 Y41.180 E1.8879
G1 X163.368 Y41.859 E1.9367
G1 X158.410 Y36.900 E2.4405
G1 X157.731 Y36.900 E2.4892
G1 X163.368 Y42.538 E3.0620
G1 X163.368 Y43.216 E3.1107
G1 X157.052 Y36.900 E3.7525
G1 X156.373 Y36.900 E3.8012
G1 X163.368 Y43.895 E4.5119
G1 X163.368 Y44.574 E4.5607
G1 X155.694 Y36.900 E5.3403
G1 X155.015 Y36.900 E5.3891
G1 X163.368 Y45.253 E6.2377
G1 X163.368 Y45.932 E6.2865
G1 X154.337 Y36.900 E7.2041
G1 X153.658 Y36.900 E7.2528
G1 X163.368 Y46.611 E8.2394
G1 X163.368 Y47.289 E8.2881
G1 X152.979 Y36.900 E9.3437
G1 X152.300 Y36.900 E9.3924
G1 X163.368 Y47.968 E10.5169
G1 X163.368 Y48.647 E10.5657
G1 X151.621 Y36.900 E11.7592
G1 X150.943 Y36.900 E11.8079
G1 X163.368 Y49.326 E13.0703
G1 X163.368 Y50.005 E13.1191
G1 X150.264 Y36.900 E14.4505
G1 X149.585 Y36.900 E14.4993
G1 X163.368 Y50.683 E15.8996
G1 X163.368 Y51.362 E15.9484
G1 X148.906 Y36.900 E17.4177
G1 X148.227 Y36.900 E17.4665
G1 X163.368 Y52.041 E19.0048
G1 X163.368 Y52.720 E19.0536
G1 X147.548 Y36.900 E20.6608
G1 X146.870 Y36.900 E20.7096
G1 X163.368 Y53.399 E22.3858
G1 X163.368 Y54.078 E22.4346
G1 X146.191 Y36.900 E24.1798
G1 X145.512 Y36.900 E24.2286
G1 X163.368 Y54.756 E26.0428
G1 X163.368 Y55.435 E26.0915
G1 X144.833 Y36.900 E27.9747
G1 X144.154 Y36.900 E28.0234
G1 X163.368 Y56.114 E29.9755
G1 X163.368 Y56.793 E30.0243
G1 X143.475 Y36.900 E32.0454
G1 X142.797 Y36.900 E32.0941
G1 X163.368 Y57.472 E34.1842
G1 X163.368 Y58.150 E34.2330
G1 X142.118 Y36.900 E36.3920
G1 X141.439 Y36.900 E36.4407
G1 X163.368 Y58.829 E38.6687
G1 X163.368 Y59.508 E38.7175
G1 X140.760 Y36.900 E41.0144
G1 X140.081 Y36.900 E41.0632
G1 X163.368 Y60.187 E43.4291
G1 X163.368 Y60.866 E43.4779
G1 X139.403 Y36.900 E45.9128
G1 X138.724 Y36.900 E45.9615
G1 X163.368 Y61.545 E48.4654
G1 X163.368 Y62.223 E48.5142
G1 X138.045 Y36.900 E51.0870
G1 X137.366 Y36.900 E51.1358
G1 X163.368 Y62.902 E53.7775
G1 X163.368 Y63.581 E53.8263
G1 X136.687 Y36.900 E56.5371
G1 X136.008 Y36.900 E56.5858
G1 X163.368 Y64.260 E59.3656
G1 X163.368 Y64.939 E59.4143
G1 X135.330 Y36.900 E62.2630
G1 X134.651 Y36.900 E62.3118
G1 X163.368 Y65.618 E65.2295
G1 X163.368 Y66.296 E65.2782
G1 X133.972 Y36.900 E68.2649
G1 X133.293 Y36.900 E68.3136
G1 X163.368 Y66.975 E71.3692
G1 X163.368 Y67.654 E71.4180
G1 X132.614 Y36.900 E74.5426
G1 X131.935 Y36.900 E74.5913
G1 X163.368 Y68.333 E77.7849
G1 X163.368 Y69.012 E77.8336
G1 X131.257 Y36.900 E81.0961
G1 X130.578 Y36.900 E81.1449
G1 X163.368 Y69.690 E84.4764
G1 X163.368 Y70.369 E84.5252
G1 X129.899 Y36.900 E87.9256
G1 X129.220 Y36.900 E87.9744
G1 X163.368 Y71.048 E91.4438
G1 X163.368 Y71.727 E91.4925
G1 X128.541 Y36.900 E95.0309
G1 X127.863 Y36.900 E95.0797
G1 X163.368 Y72.406 E98.6870
G1 X163.368 Y73.085 E98.7358
G1 X127.184 Y36.900 E102.4121
G1 X126.505 Y36.900 E102.4609
G1 X163.368 Y73.763 E106.2062
G1 X163.368 Y74.442 E106.2549
G1 X125.826 Y36.900 E110.0692
G1 X125.147 Y36.900 E110.1179
G1 X163.368 Y75.121 E114.0012
G1 X163.368 Y75.800 E114.0499
G1 X124.468 Y36.900 E118.0021
G1 X123.790 Y36.900 E118.0509
G1 X163.368 Y76.479 E122.0720
G1 X163.368 Y77.158 E122.1208
G1 X123.111 Y36.900 E126.2109
G1 X122.432 Y36.900 E126.2597
G1 X163.368 Y77.836 E130.4188
G1 X163.368 Y78.515 E130.4676
G1 X121.753 Y36.900 E134.6956
G1 X121.074 Y36.900 E134.7444
G1 X163.368 Y79.194 E139.0414
G1 X163.368 Y79.873 E139.0902
G1 X120.396 Y36.900 E143.4562
G1 X119.717 Y36.900 E143.5049
G1 X163.368 Y80.552 E147.9399
G1 X163.368 Y81.230 E147.9887
G1 X119.038 Y36.900 E152.4926
G1 X118.359 Y36.900 E152.5414
G1 X163.368 Y81.909 E157.1143
G1 X163.368 Y82.588 E157.1630
G1 X117.680 Y36.900 E161.8049
G1 X117.001 Y36.900 E161.8537
G1 X163.368 Y83.267 E166.5645
G1 X163.368 Y83.946 E166.6133
G1 X116.323 Y36.900 E171.3931
G1 X115.644 Y36.900 E171.4419
G1 X163.368 Y84.625 E176.2906
G1 X163.368 Y85.303 E176.3394
G1 X114.965 Y36.900 E181.2571
G1 X114.286 Y36.900 E181.3059
G1 X163.368 Y85.982 E186.2926
G1 X163.368 Y86.661 E186.3414
G1 X113.607 Y36.900 E191.3971
G1 X112.928 Y36.900 E191.4458
G1 X163.368 Y87.340 E196.5705
G1 X163.368 Y88.019 E196.6193
G1 X112.250 Y36.900 E201.8129
G1 X111.571 Y36.900 E201.8616
G1 X163.368 Y88.698 E207.1242
G1 X163.368 Y89.376 E207.1730
G1 X110.892 Y36.900 E212.5045
G1 X110.213 Y36.900 E212.5533
G1 X163.368 Y90.055 E217.9538
G1 X163.368 Y90.734 E218.0026
G1 X109.534 Y36.900 E223.4721
G1 X108.856 Y36.900 E223.5208
G1 X163.368 Y91.413 E229.0593
G1 X163.368 Y92.092 E229.1081
G1 X108.177 Y36.900 E234.7155
G1 X107.498 Y36.900 E234.7643
G1 X163.368 Y92.770 E240.4407
G1 X163.368 Y93.449 E240.4894
G1 X106.819 Y36.900 E246.2348
G1 X106.140 Y36.900 E246.2836
G1 X163.368 Y94.128 E252.0979
G1 X163.368 Y94.807 E252.1467
G1 X105.461 Y36.900 E258.0299
G1 X104.783 Y36.900 E258.0787
G1 X163.368 Y95.486 E264.0310
G1 X163.368 Y96.165 E264.0797
G1 X104.104 Y36.900 E270.1010
G1 X103.425 Y36.900 E270.1497
G1 X163.368 Y96.843 E276.2400
G1 X163.368 Y97.522 E276.2887
G1 X102.746 Y36.900 E282.4479
G1 X102.067 Y36.900 E282.4967
G1 X163.368 Y98.201 E288.7248
G1 X163.368 Y98.880 E288.7736
G1 X101.388 Y36.900 E295.0707
G1 X100.710 Y36.900 E295.1194
G1 X163.368 Y99.559 E301.4855
G1 X163.368 Y100.237 E301.5343
G1 X100.031 Y36.900 E307.9693
G1 X99.352 Y36.900 E308.0181
G1 X163.368 Y100.916 E314.5221
G1 X163.368 Y101.595 E314.5709
G1 X98.673 Y36.900 E321.1438
G1 X97.994 Y36.900 E321.1926
G1 X163.368 Y102.274 E327.8346
G1 X163.368 Y102.953 E327.8833
G1 X97.316 Y36.900 E334.5942
G1 X96.637 Y36.900 E334.6430
G1 X163.368 Y103.632 E341.4229
G1 X163.368 Y104.310 E341.4717
G1 X95.958 Y36.900 E348.3205
G1 X95.279 Y36.900 E348.3693
G1 X163.368 Y104.989 E355.2871
G1 X163.368 Y105.668 E355.3359
G1 X94.600 Y36.900 E362.3227
G1 X93.921 Y36.900 E362.3714
G1 X163.368 Y106.347 E369.4272
G1 X163.368 Y107.026 E369.4760
G1 X93.243 Y36.900 E376.6007
G1 X92.564 Y36.900 E376.6495
G1 X163.368 Y107.705 E383.8431
G1 X163.368 Y108.383 E383.8919
